( PCB Contour )
( Generated by Rapid-PCB.com )
( Material Size)
( X= 160.020, Y= 100.076, Z= 1.580)
()
G00
G17
G21
G40
G49
G54
G80
G90
G94
G00 F360 Z2.997
M03 S9000
G00 F360 X33.989 Y38.074
G00 F180 Z0
G01 F239 Z-0.100
G01 F239 X33.879 Y38.062
G01 F239 X33.784 Y38.007
G01 F239 X33.718 Y37.918
G01 F239 X33.699 Y37.828
G01 F239 X33.699 Y35.783
G01 F239 X33.718 Y35.693
G01 F239 X33.784 Y35.604
G01 F239 X33.879 Y35.549
G01 F239 X33.989 Y35.537
G01 F239 X34.094 Y35.571
G01 F239 X34.184 Y35.651
G01 F239 X34.223 Y35.774
G01 F239 X34.223 Y36.362
G01 F239 X34.296 Y36.435
G01 F239 X35.134 Y35.597
G01 F239 X35.218 Y35.549
G01 F239 X35.328 Y35.537
G01 F239 X35.433 Y35.571
G01 F239 X35.515 Y35.645
G01 F239 X35.560 Y35.746
G01 F239 X35.560 Y35.866
G01 F239 X35.498 Y35.974
G01 F239 X34.664 Y36.804
G01 F239 X35.517 Y37.658
G01 F239 X35.560 Y37.754
G01 F239 X35.560 Y37.865
G01 F239 X35.515 Y37.966
G01 F239 X35.433 Y38.040
G01 F239 X35.328 Y38.074
G01 F239 X35.218 Y38.062
G01 F239 X35.134 Y38.014
G01 F239 X34.222 Y37.102
G01 F239 X34.221 Y37.865
G01 F239 X34.176 Y37.966
G01 F239 X34.094 Y38.040
G01 F239 X33.989 Y38.074
G00 F360 Z2.997
G00 F360 X30.636 Y38.074
G00 F180 Z0
G01 F239 Z-0.100
G01 F239 X30.526 Y38.062
G01 F239 X30.442 Y38.014
G01 F239 X29.747 Y37.319
G01 F239 X29.696 Y37.248
G01 F239 X29.677 Y37.158
G01 F239 X29.677 Y35.783
G01 F239 X29.696 Y35.693
G01 F239 X29.761 Y35.604
G01 F239 X29.857 Y35.549
G01 F239 X29.966 Y35.537
G01 F239 X30.072 Y35.571
G01 F239 X30.161 Y35.651
G01 F239 X30.201 Y35.774
G01 F239 X30.200 Y36.544
G01 F239 X31.016 Y36.544
G01 F239 X31.016 Y35.783
G01 F239 X31.035 Y35.693
G01 F239 X31.100 Y35.604
G01 F239 X31.195 Y35.549
G01 F239 X31.305 Y35.537
G01 F239 X31.410 Y35.571
G01 F239 X31.500 Y35.651
G01 F239 X31.540 Y35.774
G01 F239 X31.538 Y37.205
G01 F239 X31.475 Y37.313
G01 F239 X30.799 Y37.988
G01 F239 X30.741 Y38.040
G01 F239 X30.636 Y38.074
G00 F360 Z2.997
G00 F360 X31.950 Y38.071
G00 F180 Z0
G01 F239 Z-0.100
G01 F239 X31.868 Y38.062
G01 F239 X31.772 Y38.007
G01 F239 X31.707 Y37.918
G01 F239 X31.688 Y37.828
G01 F239 X31.688 Y35.783
G01 F239 X31.707 Y35.693
G01 F239 X31.778 Y35.596
G01 F239 X31.904 Y35.540
G01 F239 X33.000 Y35.540
G01 F239 X33.114 Y35.590
G01 F239 X33.513 Y35.991
G01 F239 X33.551 Y36.109
G01 F239 X33.549 Y36.536
G01 F239 X33.487 Y36.644
G01 F239 X33.323 Y36.805
G01 F239 X33.513 Y36.995
G01 F239 X33.551 Y37.113
G01 F239 X33.549 Y37.540
G01 F239 X33.487 Y37.647
G01 F239 X33.145 Y37.988
G01 F239 X33.087 Y38.040
G01 F239 X32.991 Y38.071
G01 F239 X31.950 Y38.071
G00 F360 Z2.997
G00 F360 X35.973 Y38.071
G00 F180 Z0
G01 F239 Z-0.100
G01 F239 X35.891 Y38.062
G01 F239 X35.795 Y38.007
G01 F239 X35.730 Y37.918
G01 F239 X35.707 Y37.810
G01 F239 X35.730 Y37.702
G01 F239 X35.801 Y37.604
G01 F239 X35.927 Y37.548
G01 F239 X36.046 Y37.548
G01 F239 X36.046 Y36.063
G01 F239 X35.973 Y36.063
G01 F239 X35.891 Y36.054
G01 F239 X35.795 Y35.999
G01 F239 X35.730 Y35.909
G01 F239 X35.707 Y35.801
G01 F239 X35.730 Y35.693
G01 F239 X35.801 Y35.596
G01 F239 X35.927 Y35.540
G01 F239 X36.679 Y35.540
G01 F239 X36.775 Y35.571
G01 F239 X36.857 Y35.645
G01 F239 X36.902 Y35.746
G01 F239 X36.902 Y35.857
G01 F239 X36.857 Y35.958
G01 F239 X36.775 Y36.032
G01 F239 X36.679 Y36.063
G01 F239 X36.569 Y36.063
G01 F239 X36.568 Y37.548
G01 F239 X36.679 Y37.548
G01 F239 X36.775 Y37.580
G01 F239 X36.857 Y37.654
G01 F239 X36.902 Y37.754
G01 F239 X36.902 Y37.865
G01 F239 X36.857 Y37.966
G01 F239 X36.775 Y38.040
G01 F239 X36.679 Y38.071
G01 F239 X35.973 Y38.071
G00 F360 Z2.997
G00 F360 X37.314 Y38.071
G00 F180 Z0
G01 F239 Z-0.100
G01 F239 X37.232 Y38.062
G01 F239 X37.136 Y38.007
G01 F239 X37.071 Y37.918
G01 F239 X37.048 Y37.810
G01 F239 X37.071 Y37.702
G01 F239 X37.141 Y37.604
G01 F239 X37.268 Y37.548
G01 F239 X37.721 Y37.548
G01 F239 X37.721 Y35.783
G01 F239 X37.740 Y35.693
G01 F239 X37.805 Y35.604
G01 F239 X37.901 Y35.549
G01 F239 X38.011 Y35.537
G01 F239 X38.116 Y35.571
G01 F239 X38.205 Y35.651
G01 F239 X38.245 Y35.774
G01 F239 X38.243 Y37.548
G01 F239 X38.689 Y37.548
G01 F239 X38.785 Y37.580
G01 F239 X38.867 Y37.654
G01 F239 X38.912 Y37.754
G01 F239 X38.912 Y37.865
G01 F239 X38.867 Y37.966
G01 F239 X38.785 Y38.040
G01 F239 X38.689 Y38.071
G01 F239 X37.314 Y38.071
G00 F360 Z2.997
G00 F360 X27.928 Y38.071
G00 F180 Z0
G01 F239 Z-0.100
G01 F239 X27.845 Y38.062
G01 F239 X27.750 Y38.007
G01 F239 X27.684 Y37.918
G01 F239 X27.665 Y37.828
G01 F239 X27.665 Y35.783
G01 F239 X27.684 Y35.693
G01 F239 X27.750 Y35.604
G01 F239 X27.845 Y35.549
G01 F239 X27.955 Y35.537
G01 F239 X28.060 Y35.571
G01 F239 X28.149 Y35.651
G01 F239 X28.189 Y35.774
G01 F239 X28.189 Y36.544
G01 F239 X28.634 Y36.544
G01 F239 X28.730 Y36.575
G01 F239 X28.812 Y36.649
G01 F239 X28.857 Y36.750
G01 F239 X28.857 Y36.861
G01 F239 X28.812 Y36.962
G01 F239 X28.730 Y37.035
G01 F239 X28.634 Y37.067
G01 F239 X28.188 Y37.067
G01 F239 X28.188 Y37.548
G01 F239 X29.303 Y37.548
G01 F239 X29.399 Y37.580
G01 F239 X29.481 Y37.654
G01 F239 X29.526 Y37.754
G01 F239 X29.526 Y37.865
G01 F239 X29.481 Y37.966
G01 F239 X29.399 Y38.040
G01 F239 X29.303 Y38.071
G01 F239 X27.928 Y38.071
G00 F360 Z2.997
G00 F360 X32.210 Y37.548
G00 F180 Z0
G01 F239 Z-0.100
G01 F239 X32.845 Y37.548
G01 F239 X33.027 Y37.367
G01 F239 X33.027 Y37.248
G01 F239 X32.846 Y37.067
G01 F239 X32.211 Y37.067
G01 F239 X32.210 Y37.548
G00 F360 Z2.997
G00 F360 X30.608 Y37.440
G00 F180 Z0
G01 F239 Z-0.100
G01 F239 X30.981 Y37.067
G01 F239 X30.235 Y37.067
G01 F239 X30.608 Y37.440
G00 F360 Z2.997
G00 F360 X2.120 Y37.078
G00 F180 Z0
G01 F239 Z-0.100
G01 F239 X2.042 Y37.062
G01 F239 X1.970 Y37.030
G01 F239 X1.907 Y36.983
G01 F239 X1.854 Y36.925
G01 F239 X1.815 Y36.856
G01 F239 X1.790 Y36.781
G01 F239 X1.783 Y36.712
G01 F239 X1.783 Y11.269
G01 F239 X1.790 Y11.199
G01 F239 X1.815 Y11.124
G01 F239 X1.854 Y11.056
G01 F239 X1.907 Y10.997
G01 F239 X1.970 Y10.951
G01 F239 X2.042 Y10.919
G01 F239 X2.120 Y10.902
G01 F239 X2.198 Y10.902
G01 F239 X2.277 Y10.919
G01 F239 X2.287 Y10.924
G01 F239 X2.686 Y10.851
G01 F239 X2.741 Y10.851
G01 F239 X3.436 Y10.913
G01 F239 X3.485 Y10.829
G01 F239 X3.616 Y10.684
G01 F239 X3.774 Y10.569
G01 F239 X3.953 Y10.489
G01 F239 X4.144 Y10.448
G01 F239 X5.864 Y10.448
G01 F239 X6.055 Y10.489
G01 F239 X6.234 Y10.569
G01 F239 X6.392 Y10.684
G01 F239 X6.523 Y10.829
G01 F239 X6.621 Y10.998
G01 F239 X6.681 Y11.185
G01 F239 X6.702 Y11.379
G01 F239 X6.681 Y11.574
G01 F239 X6.621 Y11.760
G01 F239 X6.523 Y11.929
G01 F239 X6.392 Y12.075
G01 F239 X6.234 Y12.190
G01 F239 X6.055 Y12.269
G01 F239 X5.864 Y12.310
G01 F239 X4.144 Y12.310
G01 F239 X3.953 Y12.269
G01 F239 X3.774 Y12.190
G01 F239 X3.616 Y12.075
G01 F239 X3.485 Y11.929
G01 F239 X3.387 Y11.760
G01 F239 X3.326 Y11.574
G01 F239 X3.325 Y11.557
G01 F239 X2.731 Y11.504
G01 F239 X2.535 Y11.540
G01 F239 X2.535 Y36.328
G01 F239 X15.633 Y36.328
G01 F239 X15.651 Y35.335
G01 F239 X15.641 Y34.722
G01 F239 X15.329 Y34.722
G01 F239 X15.329 Y31.376
G01 F239 X16.643 Y31.376
G01 F239 X17.063 Y30.641
G01 F239 X17.094 Y30.588
G01 F239 X17.147 Y30.530
G01 F239 X17.210 Y30.484
G01 F239 X17.283 Y30.452
G01 F239 X17.360 Y30.435
G01 F239 X17.438 Y30.435
G01 F239 X17.515 Y30.452
G01 F239 X17.587 Y30.483
G01 F239 X22.141 Y30.433
G01 F239 X22.141 Y29.837
G01 F239 X24.290 Y29.837
G01 F239 X24.290 Y30.130
G01 F239 X25.037 Y30.130
G01 F239 X28.665 Y26.526
G01 F239 X28.717 Y26.489
G01 F239 X28.779 Y26.461
G01 F239 X28.846 Y26.447
G01 F239 X33.384 Y26.447
G01 F239 X33.451 Y26.461
G01 F239 X33.513 Y26.489
G01 F239 X33.565 Y26.526
G01 F239 X35.389 Y28.330
G01 F239 X36.902 Y28.330
G01 F239 X37.094 Y28.371
G01 F239 X37.273 Y28.450
G01 F239 X37.431 Y28.565
G01 F239 X37.562 Y28.711
G01 F239 X37.660 Y28.880
G01 F239 X37.720 Y29.066
G01 F239 X37.741 Y29.261
G01 F239 X37.720 Y29.455
G01 F239 X37.660 Y29.642
G01 F239 X37.562 Y29.811
G01 F239 X37.431 Y29.956
G01 F239 X37.273 Y30.071
G01 F239 X37.094 Y30.151
G01 F239 X36.902 Y30.192
G01 F239 X35.183 Y30.192
G01 F239 X34.991 Y30.151
G01 F239 X34.813 Y30.071
G01 F239 X34.654 Y29.956
G01 F239 X34.523 Y29.811
G01 F239 X34.426 Y29.642
G01 F239 X34.365 Y29.455
G01 F239 X34.345 Y29.261
G01 F239 X34.365 Y29.066
G01 F239 X34.426 Y28.880
G01 F239 X34.523 Y28.711
G01 F239 X34.654 Y28.565
G01 F239 X34.682 Y28.545
G01 F239 X33.216 Y27.096
G01 F239 X29.015 Y27.096
G01 F239 X25.386 Y30.700
G01 F239 X25.335 Y30.737
G01 F239 X25.272 Y30.765
G01 F239 X25.206 Y30.779
G01 F239 X24.290 Y30.779
G01 F239 X24.290 Y31.783
G01 F239 X22.141 Y31.783
G01 F239 X22.141 Y31.088
G01 F239 X17.647 Y31.133
G01 F239 X16.675 Y32.831
G01 F239 X16.675 Y34.722
G01 F239 X16.393 Y34.722
G01 F239 X16.398 Y35.009
G01 F239 X24.583 Y34.982
G01 F239 X29.530 Y30.284
G01 F239 X29.580 Y30.248
G01 F239 X29.643 Y30.220
G01 F239 X29.709 Y30.206
G01 F239 X29.760 Y30.206
G01 F239 X32.014 Y30.232
G01 F239 X32.079 Y30.246
G01 F239 X32.142 Y30.274
G01 F239 X32.197 Y30.314
G01 F239 X32.242 Y30.364
G01 F239 X32.977 Y31.604
G01 F239 X38.689 Y31.627
G01 F239 X38.714 Y3.525
G01 F239 X38.412 Y3.525
G01 F239 X38.412 Y3.971
G01 F239 X36.264 Y3.971
G01 F239 X36.264 Y2.661
G01 F239 X30.891 Y2.661
G01 F239 X30.729 Y2.822
G01 F239 X30.729 Y4.479
G01 F239 X30.722 Y4.549
G01 F239 X30.698 Y4.624
G01 F239 X30.656 Y4.696
G01 F239 X30.637 Y4.715
G01 F239 X30.443 Y5.717
G01 F239 X30.430 Y5.833
G01 F239 X30.405 Y5.913
G01 F239 X30.348 Y6.203
G01 F239 X30.348 Y8.696
G01 F239 X30.342 Y8.755
G01 F239 X30.321 Y8.819
G01 F239 X30.293 Y8.867
G01 F239 X29.394 Y10.229
G01 F239 X29.352 Y10.276
G01 F239 X29.297 Y10.316
G01 F239 X29.235 Y10.343
G01 F239 X29.168 Y10.358
G01 F239 X27.170 Y10.358
G01 F239 X27.122 Y15.783
G01 F239 X27.115 Y15.849
G01 F239 X27.098 Y15.890
G01 F239 X27.123 Y17.381
G01 F239 X27.116 Y17.442
G01 F239 X27.095 Y17.506
G01 F239 X27.061 Y17.565
G01 F239 X27.015 Y17.616
G01 F239 X26.960 Y17.656
G01 F239 X26.898 Y17.684
G01 F239 X26.834 Y17.698
G01 F239 X26.335 Y17.716
G01 F239 X26.335 Y17.782
G01 F239 X24.465 Y17.782
G01 F239 X24.465 Y17.080
G01 F239 X25.930 Y17.080
G01 F239 X26.461 Y17.061
G01 F239 X26.430 Y16.149
G01 F239 X26.335 Y16.149
G01 F239 X26.335 Y16.183
G01 F239 X24.641 Y16.173
G01 F239 X24.341 Y16.179
G01 F239 X22.859 Y16.950
G01 F239 X22.808 Y16.973
G01 F239 X22.742 Y16.987
G01 F239 X17.035 Y16.987
G01 F239 X17.010 Y16.982
G01 F239 X16.134 Y16.982
G01 F239 X16.134 Y16.956
G01 F239 X15.981 Y16.956
G01 F239 X15.798 Y17.171
G01 F239 X15.772 Y17.200
G01 F239 X15.504 Y17.468
G01 F239 X15.973 Y17.906
G01 F239 X16.134 Y17.906
G01 F239 X16.134 Y17.880
G01 F239 X18.004 Y17.880
G01 F239 X18.004 Y18.582
G01 F239 X16.134 Y18.582
G01 F239 X16.134 Y18.555
G01 F239 X15.809 Y18.555
G01 F239 X15.742 Y18.541
G01 F239 X15.680 Y18.513
G01 F239 X15.631 Y18.477
G01 F239 X15.052 Y17.935
G01 F239 X13.458 Y19.641
G01 F239 X12.640 Y20.403
G01 F239 X12.591 Y20.439
G01 F239 X12.529 Y20.466
G01 F239 X12.463 Y20.480
G01 F239 X11.504 Y20.491
G01 F239 X11.502 Y20.494
G01 F239 X11.502 Y21.405
G01 F239 X12.149 Y21.405
G01 F239 X12.149 Y23.553
G01 F239 X10.204 Y23.553
G01 F239 X10.204 Y21.405
G01 F239 X10.851 Y21.405
G01 F239 X10.851 Y20.387
G01 F239 X10.857 Y20.328
G01 F239 X10.878 Y20.263
G01 F239 X10.906 Y20.215
G01 F239 X11.068 Y19.972
G01 F239 X11.110 Y19.925
G01 F239 X11.165 Y19.885
G01 F239 X11.228 Y19.857
G01 F239 X11.293 Y19.843
G01 F239 X12.044 Y19.835
G01 F239 X12.044 Y18.829
G01 F239 X11.396 Y18.829
G01 F239 X11.396 Y16.680
G01 F239 X13.342 Y16.680
G01 F239 X13.342 Y18.813
G01 F239 X14.810 Y17.242
G01 F239 X15.307 Y16.746
G01 F239 X15.577 Y16.427
G01 F239 X15.612 Y16.388
G01 F239 X15.667 Y16.348
G01 F239 X15.729 Y16.320
G01 F239 X15.796 Y16.306
G01 F239 X16.134 Y16.306
G01 F239 X16.134 Y16.280
G01 F239 X18.004 Y16.280
G01 F239 X18.004 Y16.338
G01 F239 X22.627 Y16.338
G01 F239 X24.106 Y15.568
G01 F239 X24.156 Y15.546
G01 F239 X24.221 Y15.532
G01 F239 X24.465 Y15.527
G01 F239 X24.465 Y15.478
G01 F239 X26.164 Y15.500
G01 F239 X26.474 Y15.500
G01 F239 X26.523 Y10.023
G01 F239 X26.529 Y9.965
G01 F239 X26.550 Y9.900
G01 F239 X26.584 Y9.841
G01 F239 X26.629 Y9.790
G01 F239 X26.685 Y9.750
G01 F239 X26.747 Y9.723
G01 F239 X26.814 Y9.708
G01 F239 X28.958 Y9.708
G01 F239 X29.697 Y8.589
G01 F239 X29.698 Y6.551
G01 F239 X29.613 Y6.570
G01 F239 X29.417 Y6.570
G01 F239 X29.226 Y6.529
G01 F239 X29.047 Y6.449
G01 F239 X28.889 Y6.334
G01 F239 X28.758 Y6.189
G01 F239 X28.660 Y6.019
G01 F239 X28.599 Y5.833
G01 F239 X28.580 Y5.648
G01 F239 X28.580 Y4.106
G01 F239 X28.599 Y3.920
G01 F239 X28.660 Y3.734
G01 F239 X28.758 Y3.565
G01 F239 X28.889 Y3.419
G01 F239 X29.047 Y3.304
G01 F239 X29.226 Y3.225
G01 F239 X29.417 Y3.184
G01 F239 X29.613 Y3.184
G01 F239 X29.804 Y3.225
G01 F239 X29.977 Y3.302
G01 F239 X29.977 Y2.658
G01 F239 X29.984 Y2.589
G01 F239 X30.009 Y2.514
G01 F239 X30.048 Y2.445
G01 F239 X30.091 Y2.397
G01 F239 X30.485 Y2.003
G01 F239 X30.545 Y1.959
G01 F239 X30.617 Y1.927
G01 F239 X30.695 Y1.911
G01 F239 X36.437 Y1.911
G01 F239 X36.514 Y1.927
G01 F239 X36.586 Y1.959
G01 F239 X36.637 Y1.996
G01 F239 X36.675 Y2.025
G01 F239 X38.412 Y2.025
G01 F239 X38.412 Y2.775
G01 F239 X39.079 Y2.775
G01 F239 X39.156 Y2.791
G01 F239 X39.228 Y2.823
G01 F239 X39.292 Y2.869
G01 F239 X39.345 Y2.928
G01 F239 X39.384 Y2.996
G01 F239 X39.409 Y3.071
G01 F239 X39.417 Y3.150
G01 F239 X39.409 Y3.228
G01 F239 X39.383 Y3.308
G01 F239 X39.365 Y3.335
G01 F239 X39.340 Y31.962
G01 F239 X39.334 Y32.021
G01 F239 X39.313 Y32.086
G01 F239 X39.278 Y32.145
G01 F239 X39.233 Y32.196
G01 F239 X39.178 Y32.236
G01 F239 X39.115 Y32.264
G01 F239 X39.049 Y32.278
G01 F239 X38.998 Y32.278
G01 F239 X32.757 Y32.252
G01 F239 X32.691 Y32.238
G01 F239 X32.628 Y32.210
G01 F239 X32.572 Y32.170
G01 F239 X32.526 Y32.117
G01 F239 X31.792 Y30.879
G01 F239 X29.872 Y30.857
G01 F239 X24.927 Y35.553
G01 F239 X24.877 Y35.589
G01 F239 X24.815 Y35.616
G01 F239 X24.749 Y35.631
G01 F239 X16.398 Y35.659
G01 F239 X16.378 Y36.714
G01 F239 X16.371 Y36.781
G01 F239 X16.347 Y36.856
G01 F239 X16.307 Y36.925
G01 F239 X16.254 Y36.983
G01 F239 X16.191 Y37.030
G01 F239 X16.119 Y37.062
G01 F239 X16.041 Y37.078
G01 F239 X2.120 Y37.078
G00 F360 Z2.997
G00 F360 X32.211 Y36.544
G00 F180 Z0
G01 F239 Z-0.100
G01 F239 X32.846 Y36.544
G01 F239 X33.027 Y36.363
G01 F239 X33.027 Y36.244
G01 F239 X32.846 Y36.063
G01 F239 X32.212 Y36.063
G01 F239 X32.211 Y36.544
G00 F360 Z2.997
G00 F360 X2.887 Y36.240
G00 F180 Z0
G01 F239 Z-0.100
G01 F239 X2.820 Y36.226
G01 F239 X2.758 Y36.198
G01 F239 X2.703 Y36.158
G01 F239 X2.657 Y36.107
G01 F239 X2.623 Y36.048
G01 F239 X2.602 Y35.983
G01 F239 X2.596 Y35.925
G01 F239 X2.596 Y14.393
G01 F239 X2.602 Y14.334
G01 F239 X2.623 Y14.269
G01 F239 X2.657 Y14.210
G01 F239 X2.703 Y14.159
G01 F239 X2.749 Y14.125
G01 F239 X3.320 Y13.783
G01 F239 X3.326 Y13.725
G01 F239 X3.387 Y13.539
G01 F239 X3.485 Y13.369
G01 F239 X3.616 Y13.224
G01 F239 X3.774 Y13.109
G01 F239 X3.953 Y13.029
G01 F239 X4.144 Y12.988
G01 F239 X5.864 Y12.988
G01 F239 X5.937 Y13.004
G01 F239 X6.964 Y12.411
G01 F239 X6.964 Y10.817
G01 F239 X5.669 Y9.697
G01 F239 X2.709 Y9.697
G01 F239 X2.642 Y9.683
G01 F239 X2.580 Y9.655
G01 F239 X2.525 Y9.615
G01 F239 X2.479 Y9.564
G01 F239 X2.445 Y9.505
G01 F239 X2.428 Y9.454
G01 F239 X2.017 Y7.963
G01 F239 X2.011 Y7.909
G01 F239 X2.011 Y2.810
G01 F239 X2.018 Y2.752
G01 F239 X2.039 Y2.687
G01 F239 X2.073 Y2.628
G01 F239 X2.109 Y2.587
G01 F239 X3.037 Y1.660
G01 F239 X3.088 Y1.622
G01 F239 X3.150 Y1.595
G01 F239 X3.217 Y1.580
G01 F239 X27.161 Y1.580
G01 F239 X27.228 Y1.595
G01 F239 X27.290 Y1.622
G01 F239 X27.346 Y1.663
G01 F239 X27.391 Y1.713
G01 F239 X27.425 Y1.772
G01 F239 X27.446 Y1.837
G01 F239 X27.453 Y1.904
G01 F239 X27.334 Y3.256
G01 F239 X27.443 Y3.304
G01 F239 X27.601 Y3.419
G01 F239 X27.732 Y3.565
G01 F239 X27.830 Y3.734
G01 F239 X27.890 Y3.920
G01 F239 X27.910 Y4.106
G01 F239 X27.910 Y5.054
G01 F239 X28.285 Y6.736
G01 F239 X29.180 Y6.736
G01 F239 X29.180 Y9.368
G01 F239 X27.310 Y9.368
G01 F239 X27.310 Y6.736
G01 F239 X27.618 Y6.736
G01 F239 X27.539 Y6.380
G01 F239 X27.443 Y6.449
G01 F239 X27.264 Y6.529
G01 F239 X27.073 Y6.570
G01 F239 X26.877 Y6.570
G01 F239 X26.686 Y6.529
G01 F239 X26.507 Y6.449
G01 F239 X26.349 Y6.334
G01 F239 X26.218 Y6.189
G01 F239 X26.120 Y6.019
G01 F239 X26.059 Y5.833
G01 F239 X26.040 Y5.648
G01 F239 X26.040 Y4.106
G01 F239 X26.059 Y3.920
G01 F239 X26.120 Y3.734
G01 F239 X26.218 Y3.565
G01 F239 X26.349 Y3.419
G01 F239 X26.507 Y3.304
G01 F239 X26.685 Y3.225
G01 F239 X26.773 Y2.230
G01 F239 X3.387 Y2.230
G01 F239 X2.662 Y2.954
G01 F239 X2.662 Y6.427
G01 F239 X3.117 Y6.599
G01 F239 X3.117 Y6.241
G01 F239 X5.063 Y6.241
G01 F239 X5.063 Y8.390
G01 F239 X3.117 Y8.390
G01 F239 X3.117 Y7.304
G01 F239 X2.662 Y7.136
G01 F239 X2.662 Y7.856
G01 F239 X2.991 Y9.048
G01 F239 X5.825 Y9.048
G01 F239 X5.892 Y9.062
G01 F239 X5.954 Y9.090
G01 F239 X6.001 Y9.124
G01 F239 X7.513 Y10.431
G01 F239 X7.554 Y10.476
G01 F239 X7.588 Y10.535
G01 F239 X7.609 Y10.600
G01 F239 X7.615 Y10.659
G01 F239 X7.615 Y12.607
G01 F239 X7.609 Y12.666
G01 F239 X7.588 Y12.731
G01 F239 X7.554 Y12.790
G01 F239 X7.508 Y12.841
G01 F239 X7.460 Y12.876
G01 F239 X6.544 Y13.405
G01 F239 X6.621 Y13.539
G01 F239 X6.681 Y13.725
G01 F239 X6.702 Y13.919
G01 F239 X6.681 Y14.114
G01 F239 X6.621 Y14.300
G01 F239 X6.523 Y14.469
G01 F239 X6.392 Y14.615
G01 F239 X6.234 Y14.730
G01 F239 X6.055 Y14.809
G01 F239 X5.864 Y14.850
G01 F239 X4.144 Y14.850
G01 F239 X3.953 Y14.809
G01 F239 X3.774 Y14.730
G01 F239 X3.616 Y14.615
G01 F239 X3.483 Y14.468
G01 F239 X3.473 Y14.450
G01 F239 X3.246 Y14.586
G01 F239 X3.246 Y35.591
G01 F239 X13.988 Y35.591
G01 F239 X14.356 Y35.458
G01 F239 X14.356 Y31.411
G01 F239 X14.362 Y31.352
G01 F239 X14.383 Y31.287
G01 F239 X14.417 Y31.228
G01 F239 X14.458 Y31.182
G01 F239 X16.301 Y29.621
G01 F239 X16.347 Y29.588
G01 F239 X16.409 Y29.560
G01 F239 X16.476 Y29.546
G01 F239 X16.527 Y29.546
G01 F239 X18.716 Y29.568
G01 F239 X18.725 Y29.400
G01 F239 X18.731 Y29.345
G01 F239 X18.752 Y29.280
G01 F239 X18.786 Y29.221
G01 F239 X18.832 Y29.171
G01 F239 X18.887 Y29.131
G01 F239 X18.949 Y29.103
G01 F239 X19.016 Y29.089
G01 F239 X24.198 Y29.089
G01 F239 X27.624 Y25.663
G01 F239 X27.675 Y25.625
G01 F239 X27.738 Y25.598
G01 F239 X27.804 Y25.583
G01 F239 X35.518 Y25.583
G01 F239 X35.585 Y25.598
G01 F239 X35.647 Y25.625
G01 F239 X35.699 Y25.663
G01 F239 X35.826 Y25.790
G01 F239 X36.902 Y25.790
G01 F239 X37.096 Y25.831
G01 F239 X37.239 Y25.899
G01 F239 X37.876 Y25.892
G01 F239 X37.890 Y6.965
G01 F239 X37.762 Y6.815
G01 F239 X37.714 Y6.815
G01 F239 X37.714 Y9.103
G01 F239 X37.707 Y9.173
G01 F239 X37.683 Y9.248
G01 F239 X37.643 Y9.316
G01 F239 X37.599 Y9.364
G01 F239 X36.572 Y10.392
G01 F239 X36.512 Y10.436
G01 F239 X36.440 Y10.468
G01 F239 X36.362 Y10.484
G01 F239 X34.431 Y10.484
G01 F239 X33.929 Y11.176
G01 F239 X33.882 Y11.228
G01 F239 X33.818 Y11.274
G01 F239 X33.746 Y11.306
G01 F239 X33.669 Y11.322
G01 F239 X30.204 Y11.322
G01 F239 X29.180 Y13.458
G01 F239 X29.180 Y15.972
G01 F239 X28.519 Y15.972
G01 F239 X28.519 Y17.053
G01 F239 X28.513 Y17.111
G01 F239 X28.492 Y17.176
G01 F239 X28.458 Y17.235
G01 F239 X28.422 Y17.276
G01 F239 X27.221 Y18.476
G01 F239 X27.170 Y18.514
G01 F239 X27.107 Y18.541
G01 F239 X27.043 Y18.555
G01 F239 X26.165 Y18.582
G01 F239 X25.360 Y18.582
G01 F239 X25.335 Y18.587
G01 F239 X23.682 Y18.587
G01 F239 X23.662 Y18.596
G01 F239 X23.585 Y18.612
G01 F239 X23.506 Y18.612
G01 F239 X23.429 Y18.596
G01 F239 X23.357 Y18.564
G01 F239 X23.293 Y18.518
G01 F239 X23.241 Y18.459
G01 F239 X23.201 Y18.391
G01 F239 X23.177 Y18.316
G01 F239 X23.170 Y18.246
G01 F239 X23.170 Y17.806
G01 F239 X18.969 Y17.806
G01 F239 X18.969 Y19.034
G01 F239 X18.962 Y19.103
G01 F239 X18.937 Y19.178
G01 F239 X18.898 Y19.246
G01 F239 X18.845 Y19.305
G01 F239 X18.781 Y19.351
G01 F239 X18.709 Y19.383
G01 F239 X18.632 Y19.400
G01 F239 X18.553 Y19.400
G01 F239 X18.476 Y19.383
G01 F239 X18.458 Y19.375
G01 F239 X17.832 Y19.382
G01 F239 X17.203 Y19.382
G01 F239 X17.185 Y19.389
G01 F239 X17.108 Y19.406
G01 F239 X16.801 Y19.406
G01 F239 X16.724 Y19.389
G01 F239 X16.706 Y19.382
G01 F239 X16.134 Y19.382
G01 F239 X16.134 Y19.336
G01 F239 X15.009 Y19.312
G01 F239 X15.058 Y21.184
G01 F239 X15.032 Y22.008
G01 F239 X15.026 Y22.064
G01 F239 X15.003 Y22.134
G01 F239 X14.993 Y22.149
G01 F239 X14.993 Y23.553
G01 F239 X14.024 Y23.553
G01 F239 X13.928 Y23.859
G01 F239 X13.913 Y23.908
G01 F239 X13.878 Y23.967
G01 F239 X13.833 Y24.017
G01 F239 X13.778 Y24.058
G01 F239 X13.715 Y24.085
G01 F239 X13.649 Y24.100
G01 F239 X13.598 Y24.100
G01 F239 X13.411 Y24.099
G01 F239 X13.266 Y24.325
G01 F239 X13.223 Y24.373
G01 F239 X13.168 Y24.413
G01 F239 X13.106 Y24.440
G01 F239 X13.040 Y24.454
G01 F239 X9.262 Y24.480
G01 F239 X9.212 Y24.480
G01 F239 X9.145 Y24.466
G01 F239 X9.082 Y24.438
G01 F239 X9.027 Y24.398
G01 F239 X8.982 Y24.347
G01 F239 X8.947 Y24.288
G01 F239 X8.926 Y24.223
G01 F239 X8.920 Y24.165
G01 F239 X8.895 Y21.358
G01 F239 X8.921 Y20.840
G01 F239 X8.926 Y20.786
G01 F239 X8.947 Y20.721
G01 F239 X8.982 Y20.662
G01 F239 X9.018 Y20.621
G01 F239 X9.200 Y20.439
G01 F239 X9.200 Y18.829
G01 F239 X8.553 Y18.829
G01 F239 X8.553 Y16.680
G01 F239 X9.352 Y16.680
G01 F239 X9.352 Y16.476
G01 F239 X9.358 Y16.417
G01 F239 X9.379 Y16.352
G01 F239 X9.413 Y16.293
G01 F239 X9.450 Y16.252
G01 F239 X10.266 Y15.437
G01 F239 X10.241 Y12.239
G01 F239 X10.218 Y12.198
G01 F239 X10.196 Y12.133
G01 F239 X10.190 Y12.070
G01 F239 X10.241 Y10.934
G01 F239 X10.247 Y10.880
G01 F239 X10.268 Y10.815
G01 F239 X10.302 Y10.756
G01 F239 X10.348 Y10.705
G01 F239 X10.403 Y10.665
G01 F239 X10.466 Y10.637
G01 F239 X10.530 Y10.623
G01 F239 X12.835 Y10.572
G01 F239 X12.886 Y10.572
G01 F239 X12.953 Y10.586
G01 F239 X13.016 Y10.614
G01 F239 X13.071 Y10.654
G01 F239 X13.116 Y10.705
G01 F239 X13.149 Y10.762
G01 F239 X13.282 Y11.134
G01 F239 X13.299 Y11.184
G01 F239 X13.305 Y11.243
G01 F239 X13.305 Y11.339
G01 F239 X13.527 Y11.339
G01 F239 X13.527 Y15.585
G01 F239 X12.381 Y15.585
G01 F239 X12.381 Y11.339
G01 F239 X12.654 Y11.339
G01 F239 X12.654 Y11.307
G01 F239 X12.625 Y11.227
G01 F239 X10.894 Y11.265
G01 F239 X10.917 Y15.579
G01 F239 X10.911 Y15.638
G01 F239 X10.890 Y15.703
G01 F239 X10.856 Y15.762
G01 F239 X10.819 Y15.803
G01 F239 X10.003 Y16.619
G01 F239 X10.003 Y16.680
G01 F239 X10.498 Y16.680
G01 F239 X10.498 Y18.829
G01 F239 X9.851 Y18.829
G01 F239 X9.851 Y20.583
G01 F239 X9.845 Y20.641
G01 F239 X9.824 Y20.706
G01 F239 X9.790 Y20.765
G01 F239 X9.753 Y20.806
G01 F239 X9.564 Y20.995
G01 F239 X9.546 Y21.365
G01 F239 X9.568 Y23.829
G01 F239 X12.826 Y23.806
G01 F239 X12.972 Y23.579
G01 F239 X13.015 Y23.532
G01 F239 X13.047 Y23.508
G01 F239 X13.047 Y21.405
G01 F239 X14.400 Y21.405
G01 F239 X14.407 Y21.183
G01 F239 X14.350 Y18.973
G01 F239 X14.356 Y18.912
G01 F239 X14.377 Y18.847
G01 F239 X14.411 Y18.788
G01 F239 X14.457 Y18.737
G01 F239 X14.512 Y18.697
G01 F239 X14.574 Y18.669
G01 F239 X14.641 Y18.655
G01 F239 X14.692 Y18.655
G01 F239 X16.309 Y18.680
G01 F239 X16.706 Y18.680
G01 F239 X16.722 Y18.673
G01 F239 X16.765 Y18.663
G01 F239 X16.826 Y18.649
G01 F239 X16.930 Y18.649
G01 F239 X16.959 Y18.656
G01 F239 X17.108 Y18.656
G01 F239 X17.185 Y18.672
G01 F239 X17.192 Y18.675
G01 F239 X18.216 Y18.675
G01 F239 X18.214 Y17.781
G01 F239 X17.831 Y17.782
G01 F239 X16.134 Y17.782
G01 F239 X16.134 Y17.080
G01 F239 X17.831 Y17.081
G01 F239 X18.456 Y17.081
G01 F239 X18.482 Y17.070
G01 F239 X18.561 Y17.058
G01 F239 X18.604 Y17.049
G01 F239 X18.683 Y17.049
G01 F239 X18.713 Y17.056
G01 F239 X23.585 Y17.056
G01 F239 X23.662 Y17.072
G01 F239 X23.734 Y17.104
G01 F239 X23.798 Y17.151
G01 F239 X23.851 Y17.209
G01 F239 X23.890 Y17.277
G01 F239 X23.915 Y17.352
G01 F239 X23.922 Y17.422
G01 F239 X23.922 Y17.886
G01 F239 X24.637 Y17.880
G01 F239 X26.335 Y17.880
G01 F239 X26.335 Y17.906
G01 F239 X26.871 Y17.906
G01 F239 X27.869 Y16.909
G01 F239 X27.869 Y15.972
G01 F239 X27.310 Y15.972
G01 F239 X27.310 Y13.340
G01 F239 X28.513 Y13.340
G01 F239 X29.647 Y10.959
G01 F239 X29.646 Y10.947
G01 F239 X29.654 Y10.869
G01 F239 X29.678 Y10.794
G01 F239 X29.718 Y10.726
G01 F239 X29.770 Y10.667
G01 F239 X29.834 Y10.621
G01 F239 X29.906 Y10.589
G01 F239 X29.983 Y10.572
G01 F239 X33.437 Y10.572
G01 F239 X33.940 Y9.881
G01 F239 X33.987 Y9.829
G01 F239 X34.051 Y9.783
G01 F239 X34.123 Y9.751
G01 F239 X34.200 Y9.734
G01 F239 X36.166 Y9.734
G01 F239 X36.962 Y8.939
G01 F239 X36.962 Y6.815
G01 F239 X36.264 Y6.815
G01 F239 X36.264 Y4.869
G01 F239 X38.412 Y4.869
G01 F239 X38.412 Y6.420
G01 F239 X38.533 Y6.562
G01 F239 X38.572 Y6.628
G01 F239 X38.596 Y6.703
G01 F239 X38.604 Y6.782
G01 F239 X38.596 Y6.860
G01 F239 X38.570 Y6.940
G01 F239 X38.552 Y6.967
G01 F239 X38.527 Y26.095
G01 F239 X38.521 Y26.154
G01 F239 X38.505 Y26.202
G01 F239 X38.497 Y26.227
G01 F239 X38.500 Y26.233
G01 F239 X38.521 Y26.297
G01 F239 X38.527 Y26.356
G01 F239 X38.527 Y30.921
G01 F239 X38.521 Y30.980
G01 F239 X38.500 Y31.045
G01 F239 X38.466 Y31.104
G01 F239 X38.420 Y31.154
G01 F239 X38.365 Y31.194
G01 F239 X38.302 Y31.222
G01 F239 X38.236 Y31.236
G01 F239 X38.185 Y31.236
G01 F239 X34.078 Y31.211
G01 F239 X34.011 Y31.197
G01 F239 X33.949 Y31.169
G01 F239 X33.894 Y31.129
G01 F239 X33.852 Y31.082
G01 F239 X32.514 Y29.052
G01 F239 X29.239 Y29.052
G01 F239 X24.825 Y33.241
G01 F239 X24.776 Y33.277
G01 F239 X24.713 Y33.305
G01 F239 X24.648 Y33.319
G01 F239 X21.755 Y33.364
G01 F239 X21.755 Y34.722
G01 F239 X20.409 Y34.722
G01 F239 X20.409 Y33.424
G01 F239 X19.215 Y33.424
G01 F239 X19.215 Y34.722
G01 F239 X17.869 Y34.722
G01 F239 X17.869 Y31.376
G01 F239 X19.215 Y31.376
G01 F239 X19.215 Y32.674
G01 F239 X20.409 Y32.674
G01 F239 X20.409 Y31.376
G01 F239 X21.755 Y31.376
G01 F239 X21.755 Y32.714
G01 F239 X24.480 Y32.672
G01 F239 X28.896 Y28.481
G01 F239 X28.945 Y28.445
G01 F239 X29.008 Y28.417
G01 F239 X29.074 Y28.403
G01 F239 X32.724 Y28.403
G01 F239 X32.791 Y28.417
G01 F239 X32.853 Y28.445
G01 F239 X32.908 Y28.485
G01 F239 X32.950 Y28.532
G01 F239 X34.288 Y30.563
G01 F239 X37.876 Y30.585
G01 F239 X37.876 Y26.690
G01 F239 X37.737 Y26.690
G01 F239 X37.741 Y26.721
G01 F239 X37.720 Y26.915
G01 F239 X37.660 Y27.102
G01 F239 X37.562 Y27.271
G01 F239 X37.431 Y27.416
G01 F239 X37.273 Y27.531
G01 F239 X37.094 Y27.611
G01 F239 X36.902 Y27.652
G01 F239 X35.183 Y27.652
G01 F239 X34.991 Y27.611
G01 F239 X34.813 Y27.531
G01 F239 X34.654 Y27.416
G01 F239 X34.523 Y27.271
G01 F239 X34.426 Y27.102
G01 F239 X34.365 Y26.915
G01 F239 X34.345 Y26.721
G01 F239 X34.365 Y26.526
G01 F239 X34.426 Y26.340
G01 F239 X34.488 Y26.233
G01 F239 X27.974 Y26.233
G01 F239 X24.548 Y29.658
G01 F239 X24.496 Y29.696
G01 F239 X24.434 Y29.724
G01 F239 X24.367 Y29.738
G01 F239 X19.359 Y29.738
G01 F239 X19.350 Y29.909
G01 F239 X19.344 Y29.964
G01 F239 X19.323 Y30.029
G01 F239 X19.289 Y30.088
G01 F239 X19.243 Y30.138
G01 F239 X19.188 Y30.178
G01 F239 X19.125 Y30.206
G01 F239 X19.059 Y30.220
G01 F239 X19.008 Y30.220
G01 F239 X16.629 Y30.196
G01 F239 X15.007 Y31.571
G01 F239 X15.007 Y35.696
G01 F239 X15.000 Y35.755
G01 F239 X14.979 Y35.820
G01 F239 X14.945 Y35.879
G01 F239 X14.900 Y35.930
G01 F239 X14.844 Y35.970
G01 F239 X14.793 Y35.993
G01 F239 X14.141 Y36.227
G01 F239 X14.080 Y36.240
G01 F239 X2.887 Y36.240
G00 F360 Z2.997
G00 F360 X6.951 Y35.478
G00 F180 Z0
G01 F239 Z-0.100
G01 F239 X6.884 Y35.464
G01 F239 X6.822 Y35.436
G01 F239 X6.767 Y35.396
G01 F239 X6.721 Y35.345
G01 F239 X6.687 Y35.286
G01 F239 X6.666 Y35.221
G01 F239 X6.660 Y35.163
G01 F239 X6.660 Y31.157
G01 F239 X6.666 Y31.098
G01 F239 X6.687 Y31.033
G01 F239 X6.721 Y30.974
G01 F239 X6.765 Y30.926
G01 F239 X6.909 Y30.811
G01 F239 X6.837 Y28.620
G01 F239 X6.844 Y28.558
G01 F239 X6.865 Y28.493
G01 F239 X6.899 Y28.434
G01 F239 X6.933 Y28.396
G01 F239 X7.986 Y27.240
G01 F239 X8.041 Y27.200
G01 F239 X8.103 Y27.172
G01 F239 X8.170 Y27.158
G01 F239 X17.118 Y27.158
G01 F239 X18.926 Y24.956
G01 F239 X18.909 Y23.547
G01 F239 X18.909 Y22.931
G01 F239 X18.884 Y22.931
G01 F239 X18.884 Y21.061
G01 F239 X19.585 Y21.061
G01 F239 X19.585 Y22.931
G01 F239 X19.560 Y22.931
G01 F239 X19.560 Y23.546
G01 F239 X19.579 Y25.078
G01 F239 X19.572 Y25.138
G01 F239 X19.551 Y25.203
G01 F239 X19.519 Y25.258
G01 F239 X17.527 Y27.685
G01 F239 X17.490 Y27.725
G01 F239 X17.435 Y27.765
G01 F239 X17.373 Y27.793
G01 F239 X17.306 Y27.807
G01 F239 X8.348 Y27.807
G01 F239 X7.492 Y28.746
G01 F239 X7.565 Y30.969
G01 F239 X7.558 Y31.030
G01 F239 X7.537 Y31.095
G01 F239 X7.503 Y31.154
G01 F239 X7.460 Y31.202
G01 F239 X7.310 Y31.322
G01 F239 X7.310 Y34.829
G01 F239 X10.710 Y34.829
G01 F239 X10.715 Y34.722
G01 F239 X10.249 Y34.722
G01 F239 X10.249 Y31.376
G01 F239 X11.595 Y31.376
G01 F239 X11.595 Y34.722
G01 F239 X11.366 Y34.722
G01 F239 X11.349 Y35.166
G01 F239 X11.343 Y35.221
G01 F239 X11.322 Y35.286
G01 F239 X11.288 Y35.345
G01 F239 X11.242 Y35.396
G01 F239 X11.187 Y35.436
G01 F239 X11.124 Y35.464
G01 F239 X11.058 Y35.478
G01 F239 X6.951 Y35.478
G00 F360 Z2.997
G00 F360 X30.473 Y34.848
G00 F180 Z0
G01 F239 Z-0.100
G01 F239 X30.359 Y34.836
G01 F239 X30.258 Y34.763
G01 F239 X29.130 Y33.069
G01 F239 X29.109 Y32.969
G01 F239 X29.131 Y32.866
G01 F239 X29.192 Y32.781
G01 F239 X29.283 Y32.729
G01 F239 X29.388 Y32.718
G01 F239 X29.488 Y32.750
G01 F239 X29.555 Y32.810
G01 F239 X30.660 Y34.468
G01 F239 X30.694 Y34.544
G01 F239 X30.694 Y34.649
G01 F239 X30.651 Y34.745
G01 F239 X30.573 Y34.815
G01 F239 X30.473 Y34.848
G00 F360 Z2.997
G00 F360 X34.299 Y34.848
G00 F180 Z0
G01 F239 Z-0.100
G01 F239 X34.195 Y34.837
G01 F239 X34.104 Y34.784
G01 F239 X34.042 Y34.699
G01 F239 X34.024 Y34.614
G01 F239 X34.024 Y33.493
G01 F239 X34.042 Y33.409
G01 F239 X34.090 Y33.342
G01 F239 X34.658 Y32.774
G01 F239 X34.737 Y32.729
G01 F239 X34.852 Y32.717
G01 F239 X34.966 Y32.768
G01 F239 X35.571 Y33.374
G01 F239 X35.607 Y33.484
G01 F239 X35.605 Y34.649
G01 F239 X35.563 Y34.745
G01 F239 X35.484 Y34.815
G01 F239 X35.384 Y34.848
G01 F239 X35.280 Y34.837
G01 F239 X35.189 Y34.784
G01 F239 X35.127 Y34.699
G01 F239 X35.109 Y34.614
G01 F239 X35.109 Y33.614
G01 F239 X34.815 Y33.321
G01 F239 X34.522 Y33.612
G01 F239 X34.520 Y34.649
G01 F239 X34.478 Y34.745
G01 F239 X34.400 Y34.815
G01 F239 X34.299 Y34.848
G00 F360 Z2.997
G00 F360 X31.269 Y34.845
G00 F180 Z0
G01 F239 Z-0.100
G01 F239 X31.192 Y34.837
G01 F239 X31.113 Y34.791
G01 F239 X30.816 Y34.494
G01 F239 X30.768 Y34.428
G01 F239 X30.750 Y34.343
G01 F239 X30.750 Y33.222
G01 F239 X30.768 Y33.138
G01 F239 X30.816 Y33.071
G01 F239 X31.119 Y32.768
G01 F239 X31.225 Y32.720
G01 F239 X31.857 Y32.720
G01 F239 X31.963 Y32.768
G01 F239 X32.297 Y33.103
G01 F239 X32.333 Y33.213
G01 F239 X32.331 Y34.387
G01 F239 X32.273 Y34.488
G01 F239 X31.993 Y34.767
G01 F239 X31.939 Y34.815
G01 F239 X31.848 Y34.845
G01 F239 X31.269 Y34.845
G00 F360 Z2.997
G00 F360 X36.999 Y34.845
G00 F180 Z0
G01 F239 Z-0.100
G01 F239 X36.922 Y34.837
G01 F239 X36.843 Y34.791
G01 F239 X36.546 Y34.494
G01 F239 X36.498 Y34.428
G01 F239 X36.476 Y34.325
G01 F239 X36.498 Y34.222
G01 F239 X36.560 Y34.137
G01 F239 X36.651 Y34.084
G01 F239 X36.765 Y34.072
G01 F239 X36.880 Y34.123
G01 F239 X37.103 Y34.347
G01 F239 X37.439 Y34.347
G01 F239 X37.564 Y34.222
G01 F239 X37.564 Y34.157
G01 F239 X36.546 Y33.139
G01 F239 X36.498 Y33.072
G01 F239 X36.476 Y32.969
G01 F239 X36.498 Y32.866
G01 F239 X36.565 Y32.773
G01 F239 X36.684 Y32.720
G01 F239 X37.849 Y32.720
G01 F239 X37.940 Y32.750
G01 F239 X38.018 Y32.821
G01 F239 X38.061 Y32.917
G01 F239 X38.061 Y33.022
G01 F239 X38.018 Y33.118
G01 F239 X37.940 Y33.188
G01 F239 X37.849 Y33.218
G01 F239 X37.330 Y33.218
G01 F239 X38.027 Y33.916
G01 F239 X38.063 Y34.027
G01 F239 X38.061 Y34.388
G01 F239 X38.003 Y34.488
G01 F239 X37.723 Y34.767
G01 F239 X37.669 Y34.815
G01 F239 X37.578 Y34.845
G01 F239 X36.999 Y34.845
G00 F360 Z2.997
G00 F360 X28.269 Y34.845
G00 F180 Z0
G01 F239 Z-0.100
G01 F239 X28.192 Y34.837
G01 F239 X28.101 Y34.784
G01 F239 X28.039 Y34.699
G01 F239 X28.017 Y34.596
G01 F239 X28.039 Y34.493
G01 F239 X28.107 Y34.400
G01 F239 X28.226 Y34.347
G01 F239 X28.292 Y34.347
G01 F239 X28.292 Y33.218
G01 F239 X28.269 Y33.218
G01 F239 X28.192 Y33.210
G01 F239 X28.101 Y33.157
G01 F239 X28.039 Y33.072
G01 F239 X28.017 Y32.969
G01 F239 X28.039 Y32.866
G01 F239 X28.107 Y32.773
G01 F239 X28.226 Y32.720
G01 F239 X28.848 Y32.720
G01 F239 X28.939 Y32.750
G01 F239 X29.017 Y32.821
G01 F239 X29.060 Y32.917
G01 F239 X29.060 Y33.022
G01 F239 X29.017 Y33.118
G01 F239 X28.939 Y33.188
G01 F239 X28.848 Y33.218
G01 F239 X28.790 Y33.218
G01 F239 X28.789 Y34.347
G01 F239 X28.848 Y34.347
G01 F239 X28.939 Y34.377
G01 F239 X29.017 Y34.447
G01 F239 X29.060 Y34.544
G01 F239 X29.060 Y34.649
G01 F239 X29.017 Y34.745
G01 F239 X28.939 Y34.815
G01 F239 X28.848 Y34.845
G01 F239 X28.269 Y34.845
G00 F360 Z2.997
G00 F360 X12.789 Y34.722
G00 F180 Z0
G01 F239 Z-0.100
G01 F239 X12.789 Y32.682
G01 F239 X12.214 Y32.191
G01 F239 X12.173 Y32.145
G01 F239 X12.139 Y32.086
G01 F239 X12.118 Y32.021
G01 F239 X12.112 Y31.962
G01 F239 X12.105 Y28.217
G01 F239 X12.111 Y28.158
G01 F239 X12.132 Y28.093
G01 F239 X12.167 Y28.034
G01 F239 X12.212 Y27.984
G01 F239 X12.267 Y27.943
G01 F239 X12.330 Y27.916
G01 F239 X12.396 Y27.901
G01 F239 X17.464 Y27.901
G01 F239 X17.511 Y27.869
G01 F239 X19.178 Y25.958
G01 F239 X19.213 Y25.920
G01 F239 X19.268 Y25.879
G01 F239 X19.330 Y25.852
G01 F239 X19.393 Y25.838
G01 F239 X19.692 Y25.825
G01 F239 X19.709 Y22.931
G01 F239 X19.684 Y22.931
G01 F239 X19.684 Y21.061
G01 F239 X20.388 Y21.061
G01 F239 X20.361 Y22.761
G01 F239 X20.341 Y26.146
G01 F239 X20.334 Y26.205
G01 F239 X20.313 Y26.269
G01 F239 X20.279 Y26.328
G01 F239 X20.234 Y26.379
G01 F239 X20.178 Y26.419
G01 F239 X20.116 Y26.447
G01 F239 X20.053 Y26.460
G01 F239 X19.584 Y26.481
G01 F239 X17.982 Y28.317
G01 F239 X17.948 Y28.356
G01 F239 X17.905 Y28.386
G01 F239 X17.727 Y28.510
G01 F239 X17.666 Y28.536
G01 F239 X17.600 Y28.551
G01 F239 X12.757 Y28.551
G01 F239 X12.762 Y31.803
G01 F239 X12.789 Y31.826
G01 F239 X12.789 Y31.376
G01 F239 X14.135 Y31.376
G01 F239 X14.135 Y34.722
G01 F239 X12.789 Y34.722
G00 F360 Z2.997
G00 F360 X7.709 Y34.722
G00 F180 Z0
G01 F239 Z-0.100
G01 F239 X7.709 Y31.376
G01 F239 X8.008 Y31.376
G01 F239 X7.926 Y29.739
G01 F239 X7.933 Y29.676
G01 F239 X7.954 Y29.611
G01 F239 X7.988 Y29.552
G01 F239 X8.034 Y29.501
G01 F239 X8.089 Y29.461
G01 F239 X8.151 Y29.433
G01 F239 X8.216 Y29.419
G01 F239 X10.073 Y29.385
G01 F239 X10.073 Y28.620
G01 F239 X12.019 Y28.620
G01 F239 X12.019 Y30.766
G01 F239 X10.073 Y30.766
G01 F239 X10.073 Y30.035
G01 F239 X8.594 Y30.062
G01 F239 X8.660 Y31.376
G01 F239 X9.055 Y31.376
G01 F239 X9.055 Y34.722
G01 F239 X7.709 Y34.722
G00 F360 Z2.997
G00 F360 X31.373 Y34.347
G00 F180 Z0
G01 F239 Z-0.100
G01 F239 X31.709 Y34.347
G01 F239 X31.834 Y34.222
G01 F239 X31.834 Y33.343
G01 F239 X31.709 Y33.218
G01 F239 X31.373 Y33.218
G01 F239 X31.248 Y33.341
G01 F239 X31.246 Y34.221
G01 F239 X31.373 Y34.347
G00 F360 Z2.997
G00 F360 X35.909 Y33.489
G00 F180 Z0
G01 F239 Z-0.100
G01 F239 X35.832 Y33.481
G01 F239 X35.741 Y33.428
G01 F239 X35.679 Y33.343
G01 F239 X35.661 Y33.259
G01 F239 X35.661 Y32.951
G01 F239 X35.679 Y32.866
G01 F239 X35.747 Y32.773
G01 F239 X35.866 Y32.720
G01 F239 X36.217 Y32.720
G01 F239 X36.308 Y32.750
G01 F239 X36.393 Y32.827
G01 F239 X36.431 Y32.942
G01 F239 X36.429 Y33.294
G01 F239 X36.386 Y33.389
G01 F239 X36.308 Y33.460
G01 F239 X36.217 Y33.489
G01 F239 X35.909 Y33.489
G00 F360 Z2.997
G00 F360 X12.873 Y30.766
G00 F180 Z0
G01 F239 Z-0.100
G01 F239 X12.873 Y28.620
G01 F239 X14.819 Y28.620
G01 F239 X14.819 Y28.750
G01 F239 X17.855 Y28.708
G01 F239 X18.803 Y28.246
G01 F239 X19.303 Y27.866
G01 F239 X19.345 Y27.835
G01 F239 X19.407 Y27.807
G01 F239 X19.474 Y27.793
G01 F239 X20.503 Y27.793
G01 F239 X20.503 Y27.459
G01 F239 X20.484 Y25.477
G01 F239 X20.484 Y21.061
G01 F239 X20.509 Y21.061
G01 F239 X20.509 Y20.159
G01 F239 X20.515 Y20.100
G01 F239 X20.536 Y20.035
G01 F239 X20.570 Y19.976
G01 F239 X20.616 Y19.925
G01 F239 X20.671 Y19.885
G01 F239 X20.733 Y19.857
G01 F239 X20.800 Y19.843
G01 F239 X23.656 Y19.843
G01 F239 X23.723 Y19.857
G01 F239 X23.785 Y19.885
G01 F239 X23.837 Y19.922
G01 F239 X25.231 Y21.316
G01 F239 X27.144 Y21.316
G01 F239 X31.806 Y16.655
G01 F239 X31.806 Y14.139
G01 F239 X31.812 Y14.080
G01 F239 X31.833 Y14.015
G01 F239 X31.867 Y13.956
G01 F239 X31.882 Y13.940
G01 F239 X31.882 Y13.340
G01 F239 X33.752 Y13.340
G01 F239 X33.752 Y15.972
G01 F239 X32.456 Y15.972
G01 F239 X32.456 Y16.799
G01 F239 X32.450 Y16.857
G01 F239 X32.429 Y16.922
G01 F239 X32.395 Y16.981
G01 F239 X32.358 Y17.022
G01 F239 X27.494 Y21.886
G01 F239 X27.443 Y21.923
G01 F239 X27.380 Y21.951
G01 F239 X27.314 Y21.965
G01 F239 X25.061 Y21.965
G01 F239 X24.994 Y21.951
G01 F239 X24.932 Y21.923
G01 F239 X24.881 Y21.886
G01 F239 X23.487 Y20.492
G01 F239 X21.160 Y20.492
G01 F239 X21.160 Y21.061
G01 F239 X21.185 Y21.061
G01 F239 X21.185 Y22.931
G01 F239 X21.153 Y22.931
G01 F239 X21.134 Y25.478
G01 F239 X21.153 Y27.457
G01 F239 X21.153 Y27.793
G01 F239 X22.141 Y27.793
G01 F239 X22.141 Y26.993
G01 F239 X24.290 Y26.993
G01 F239 X24.290 Y28.939
G01 F239 X22.141 Y28.939
G01 F239 X22.141 Y28.442
G01 F239 X19.618 Y28.442
G01 F239 X19.179 Y28.776
G01 F239 X19.139 Y28.805
G01 F239 X18.082 Y29.321
G01 F239 X18.033 Y29.343
G01 F239 X17.968 Y29.357
G01 F239 X14.819 Y29.399
G01 F239 X14.819 Y30.766
G01 F239 X12.873 Y30.766
G00 F360 Z2.997
G00 F360 X4.144 Y30.090
G00 F180 Z0
G01 F239 Z-0.100
G01 F239 X3.953 Y30.049
G01 F239 X3.774 Y29.970
G01 F239 X3.616 Y29.855
G01 F239 X3.485 Y29.709
G01 F239 X3.387 Y29.540
G01 F239 X3.326 Y29.354
G01 F239 X3.306 Y29.159
G01 F239 X3.326 Y28.965
G01 F239 X3.387 Y28.779
G01 F239 X3.485 Y28.609
G01 F239 X3.616 Y28.464
G01 F239 X3.774 Y28.349
G01 F239 X3.953 Y28.269
G01 F239 X4.144 Y28.228
G01 F239 X5.563 Y28.228
G01 F239 X7.486 Y26.523
G01 F239 X7.533 Y26.489
G01 F239 X7.595 Y26.461
G01 F239 X7.662 Y26.447
G01 F239 X16.673 Y26.397
G01 F239 X18.139 Y24.382
G01 F239 X18.119 Y22.931
G01 F239 X18.058 Y22.931
G01 F239 X18.058 Y21.569
G01 F239 X18.811 Y21.569
G01 F239 X18.811 Y22.931
G01 F239 X18.769 Y22.931
G01 F239 X18.791 Y24.494
G01 F239 X18.785 Y24.553
G01 F239 X18.764 Y24.618
G01 F239 X18.734 Y24.670
G01 F239 X17.098 Y26.919
G01 F239 X17.059 Y26.963
G01 F239 X17.003 Y27.003
G01 F239 X16.941 Y27.031
G01 F239 X16.875 Y27.045
G01 F239 X7.821 Y27.096
G01 F239 X6.330 Y28.418
G01 F239 X6.392 Y28.464
G01 F239 X6.523 Y28.609
G01 F239 X6.621 Y28.779
G01 F239 X6.681 Y28.965
G01 F239 X6.702 Y29.159
G01 F239 X6.681 Y29.354
G01 F239 X6.621 Y29.540
G01 F239 X6.523 Y29.709
G01 F239 X6.392 Y29.855
G01 F239 X6.234 Y29.970
G01 F239 X6.055 Y30.049
G01 F239 X5.864 Y30.090
G01 F239 X4.144 Y30.090
G00 F360 Z2.997
G00 F360 X4.144 Y27.550
G00 F180 Z0
G01 F239 Z-0.100
G01 F239 X3.953 Y27.509
G01 F239 X3.774 Y27.430
G01 F239 X3.616 Y27.315
G01 F239 X3.485 Y27.169
G01 F239 X3.387 Y27.000
G01 F239 X3.326 Y26.814
G01 F239 X3.306 Y26.619
G01 F239 X3.326 Y26.425
G01 F239 X3.387 Y26.239
G01 F239 X3.485 Y26.069
G01 F239 X3.616 Y25.924
G01 F239 X3.774 Y25.809
G01 F239 X3.953 Y25.729
G01 F239 X4.144 Y25.688
G01 F239 X5.864 Y25.688
G01 F239 X6.055 Y25.729
G01 F239 X6.234 Y25.809
G01 F239 X6.392 Y25.924
G01 F239 X6.437 Y25.973
G01 F239 X7.587 Y25.721
G01 F239 X7.620 Y25.714
G01 F239 X7.765 Y25.685
G01 F239 X16.007 Y25.685
G01 F239 X16.007 Y21.606
G01 F239 X16.013 Y21.547
G01 F239 X16.032 Y21.488
G01 F239 X16.267 Y21.007
G01 F239 X16.134 Y21.007
G01 F239 X16.134 Y20.255
G01 F239 X17.496 Y20.255
G01 F239 X17.496 Y21.007
G01 F239 X16.990 Y21.007
G01 F239 X16.658 Y21.690
G01 F239 X16.658 Y26.019
G01 F239 X16.651 Y26.078
G01 F239 X16.630 Y26.142
G01 F239 X16.596 Y26.201
G01 F239 X16.551 Y26.252
G01 F239 X16.495 Y26.292
G01 F239 X16.433 Y26.320
G01 F239 X16.366 Y26.334
G01 F239 X7.831 Y26.334
G01 F239 X7.736 Y26.353
G01 F239 X6.699 Y26.595
G01 F239 X6.702 Y26.619
G01 F239 X6.681 Y26.814
G01 F239 X6.621 Y27.000
G01 F239 X6.523 Y27.169
G01 F239 X6.392 Y27.315
G01 F239 X6.234 Y27.430
G01 F239 X6.055 Y27.509
G01 F239 X5.864 Y27.550
G01 F239 X4.144 Y27.550
G00 F360 Z2.997
G00 F360 X8.297 Y25.293
G00 F180 Z0
G01 F239 Z-0.100
G01 F239 X8.230 Y25.279
G01 F239 X8.168 Y25.251
G01 F239 X8.113 Y25.211
G01 F239 X8.076 Y25.170
G01 F239 X7.322 Y24.238
G01 F239 X6.678 Y24.285
G01 F239 X6.621 Y24.460
G01 F239 X6.523 Y24.629
G01 F239 X6.392 Y24.775
G01 F239 X6.234 Y24.890
G01 F239 X6.055 Y24.969
G01 F239 X5.864 Y25.010
G01 F239 X4.144 Y25.010
G01 F239 X3.953 Y24.969
G01 F239 X3.774 Y24.890
G01 F239 X3.616 Y24.775
G01 F239 X3.485 Y24.629
G01 F239 X3.387 Y24.460
G01 F239 X3.326 Y24.274
G01 F239 X3.306 Y24.079
G01 F239 X3.326 Y23.885
G01 F239 X3.387 Y23.699
G01 F239 X3.485 Y23.529
G01 F239 X3.616 Y23.384
G01 F239 X3.774 Y23.269
G01 F239 X3.953 Y23.189
G01 F239 X4.144 Y23.148
G01 F239 X5.864 Y23.148
G01 F239 X6.055 Y23.189
G01 F239 X6.234 Y23.269
G01 F239 X6.392 Y23.384
G01 F239 X6.523 Y23.529
G01 F239 X6.586 Y23.639
G01 F239 X7.445 Y23.577
G01 F239 X7.502 Y23.577
G01 F239 X7.568 Y23.591
G01 F239 X7.631 Y23.619
G01 F239 X7.686 Y23.659
G01 F239 X7.723 Y23.699
G01 F239 X8.487 Y24.644
G01 F239 X15.189 Y24.644
G01 F239 X15.143 Y21.481
G01 F239 X15.149 Y21.421
G01 F239 X15.171 Y21.356
G01 F239 X15.208 Y21.290
G01 F239 X15.218 Y21.282
G01 F239 X15.322 Y20.176
G01 F239 X15.327 Y20.125
G01 F239 X15.348 Y20.060
G01 F239 X15.382 Y20.001
G01 F239 X15.422 Y19.957
G01 F239 X15.868 Y19.564
G01 F239 X15.915 Y19.529
G01 F239 X15.977 Y19.502
G01 F239 X16.044 Y19.487
G01 F239 X16.091 Y19.487
G01 F239 X16.304 Y19.480
G01 F239 X18.004 Y19.480
G01 F239 X18.004 Y20.182
G01 F239 X16.151 Y20.182
G01 F239 X15.958 Y20.353
G01 F239 X15.844 Y21.556
G01 F239 X15.839 Y21.607
G01 F239 X15.818 Y21.672
G01 F239 X15.797 Y21.707
G01 F239 X15.845 Y24.976
G01 F239 X15.839 Y25.036
G01 F239 X15.818 Y25.101
G01 F239 X15.783 Y25.160
G01 F239 X15.738 Y25.211
G01 F239 X15.683 Y25.251
G01 F239 X15.620 Y25.279
G01 F239 X15.554 Y25.293
G01 F239 X8.297 Y25.293
G00 F360 Z2.997
G00 F360 X21.937 Y25.242
G00 F180 Z0
G01 F239 Z-0.100
G01 F239 X21.870 Y25.228
G01 F239 X21.808 Y25.200
G01 F239 X21.753 Y25.160
G01 F239 X21.707 Y25.109
G01 F239 X21.681 Y25.064
G01 F239 X21.336 Y24.432
G01 F239 X21.315 Y24.369
G01 F239 X21.309 Y24.311
G01 F239 X21.309 Y22.931
G01 F239 X21.284 Y22.931
G01 F239 X21.284 Y21.061
G01 F239 X21.985 Y21.061
G01 F239 X21.985 Y22.931
G01 F239 X21.960 Y22.931
G01 F239 X21.960 Y24.219
G01 F239 X22.164 Y24.593
G01 F239 X34.444 Y24.593
G01 F239 X34.426 Y24.562
G01 F239 X34.365 Y24.375
G01 F239 X34.345 Y24.181
G01 F239 X34.365 Y23.986
G01 F239 X34.426 Y23.800
G01 F239 X34.523 Y23.631
G01 F239 X34.654 Y23.485
G01 F239 X34.813 Y23.370
G01 F239 X34.991 Y23.291
G01 F239 X35.183 Y23.250
G01 F239 X36.902 Y23.250
G01 F239 X37.094 Y23.291
G01 F239 X37.273 Y23.370
G01 F239 X37.431 Y23.485
G01 F239 X37.562 Y23.631
G01 F239 X37.660 Y23.800
G01 F239 X37.720 Y23.986
G01 F239 X37.741 Y24.181
G01 F239 X37.720 Y24.375
G01 F239 X37.660 Y24.562
G01 F239 X37.562 Y24.731
G01 F239 X37.431 Y24.876
G01 F239 X37.273 Y24.991
G01 F239 X37.094 Y25.071
G01 F239 X36.902 Y25.112
G01 F239 X35.873 Y25.112
G01 F239 X35.829 Y25.160
G01 F239 X35.774 Y25.200
G01 F239 X35.712 Y25.228
G01 F239 X35.645 Y25.242
G01 F239 X21.937 Y25.242
G00 F360 Z2.997
G00 F360 X22.851 Y24.455
G00 F180 Z0
G01 F239 Z-0.100
G01 F239 X22.785 Y24.440
G01 F239 X22.722 Y24.413
G01 F239 X22.668 Y24.373
G01 F239 X22.300 Y23.979
G01 F239 X22.266 Y23.941
G01 F239 X22.238 Y23.893
G01 F239 X22.128 Y23.674
G01 F239 X22.109 Y23.614
G01 F239 X22.103 Y23.557
G01 F239 X22.084 Y22.761
G01 F239 X22.084 Y21.061
G01 F239 X22.785 Y21.061
G01 F239 X22.785 Y22.931
G01 F239 X22.754 Y22.931
G01 F239 X22.754 Y23.469
G01 F239 X22.800 Y23.563
G01 F239 X23.027 Y23.805
G01 F239 X32.242 Y23.805
G01 F239 X34.360 Y21.493
G01 F239 X34.365 Y21.446
G01 F239 X34.426 Y21.260
G01 F239 X34.523 Y21.091
G01 F239 X34.654 Y20.945
G01 F239 X34.813 Y20.830
G01 F239 X34.991 Y20.751
G01 F239 X35.183 Y20.710
G01 F239 X36.902 Y20.710
G01 F239 X37.094 Y20.751
G01 F239 X37.273 Y20.830
G01 F239 X37.431 Y20.945
G01 F239 X37.562 Y21.091
G01 F239 X37.660 Y21.260
G01 F239 X37.720 Y21.446
G01 F239 X37.741 Y21.641
G01 F239 X37.720 Y21.835
G01 F239 X37.660 Y22.021
G01 F239 X37.562 Y22.191
G01 F239 X37.431 Y22.336
G01 F239 X37.273 Y22.451
G01 F239 X37.094 Y22.531
G01 F239 X36.902 Y22.572
G01 F239 X35.183 Y22.572
G01 F239 X34.991 Y22.531
G01 F239 X34.813 Y22.451
G01 F239 X34.654 Y22.336
G01 F239 X34.562 Y22.234
G01 F239 X32.603 Y24.373
G01 F239 X32.548 Y24.413
G01 F239 X32.486 Y24.440
G01 F239 X32.419 Y24.455
G01 F239 X22.851 Y24.455
G00 F360 Z2.997
G00 F360 X23.181 Y23.718
G00 F180 Z0
G01 F239 Z-0.100
G01 F239 X23.115 Y23.704
G01 F239 X23.052 Y23.676
G01 F239 X22.997 Y23.636
G01 F239 X22.952 Y23.585
G01 F239 X22.918 Y23.526
G01 F239 X22.896 Y23.461
G01 F239 X22.890 Y23.403
G01 F239 X22.884 Y22.759
G01 F239 X22.884 Y21.061
G01 F239 X23.585 Y21.061
G01 F239 X23.585 Y22.931
G01 F239 X23.541 Y22.931
G01 F239 X23.541 Y23.069
G01 F239 X30.493 Y23.069
G01 F239 X34.353 Y19.024
G01 F239 X34.365 Y18.906
G01 F239 X34.426 Y18.720
G01 F239 X34.523 Y18.551
G01 F239 X34.654 Y18.405
G01 F239 X34.813 Y18.290
G01 F239 X34.991 Y18.211
G01 F239 X35.183 Y18.170
G01 F239 X36.902 Y18.170
G01 F239 X37.094 Y18.211
G01 F239 X37.273 Y18.290
G01 F239 X37.431 Y18.405
G01 F239 X37.562 Y18.551
G01 F239 X37.660 Y18.720
G01 F239 X37.720 Y18.906
G01 F239 X37.741 Y19.101
G01 F239 X37.720 Y19.295
G01 F239 X37.660 Y19.482
G01 F239 X37.562 Y19.651
G01 F239 X37.431 Y19.796
G01 F239 X37.273 Y19.911
G01 F239 X37.094 Y19.991
G01 F239 X36.902 Y20.032
G01 F239 X35.183 Y20.032
G01 F239 X34.991 Y19.991
G01 F239 X34.813 Y19.911
G01 F239 X34.654 Y19.796
G01 F239 X34.587 Y19.722
G01 F239 X30.849 Y23.637
G01 F239 X30.796 Y23.676
G01 F239 X30.733 Y23.704
G01 F239 X30.667 Y23.718
G01 F239 X23.181 Y23.718
G00 F360 Z2.997
G00 F360 X23.658 Y22.931
G00 F180 Z0
G01 F239 Z-0.100
G01 F239 X23.658 Y21.569
G01 F239 X24.408 Y21.569
G01 F239 X24.417 Y22.154
G01 F239 X28.414 Y22.154
G01 F239 X34.476 Y16.093
G01 F239 X34.523 Y16.011
G01 F239 X34.654 Y15.865
G01 F239 X34.813 Y15.750
G01 F239 X34.991 Y15.671
G01 F239 X35.183 Y15.630
G01 F239 X36.902 Y15.630
G01 F239 X37.094 Y15.671
G01 F239 X37.273 Y15.750
G01 F239 X37.431 Y15.865
G01 F239 X37.562 Y16.011
G01 F239 X37.660 Y16.180
G01 F239 X37.720 Y16.366
G01 F239 X37.741 Y16.561
G01 F239 X37.720 Y16.755
G01 F239 X37.660 Y16.942
G01 F239 X37.562 Y17.111
G01 F239 X37.431 Y17.256
G01 F239 X37.273 Y17.371
G01 F239 X37.094 Y17.451
G01 F239 X36.902 Y17.492
G01 F239 X35.183 Y17.492
G01 F239 X34.991 Y17.451
G01 F239 X34.813 Y17.371
G01 F239 X34.654 Y17.256
G01 F239 X34.523 Y17.111
G01 F239 X34.470 Y17.018
G01 F239 X28.764 Y22.724
G01 F239 X28.713 Y22.762
G01 F239 X28.650 Y22.789
G01 F239 X28.584 Y22.804
G01 F239 X24.411 Y22.802
G01 F239 X24.411 Y22.931
G01 F239 X23.658 Y22.931
G00 F360 Z2.997
G00 F360 X4.144 Y22.470
G00 F180 Z0
G01 F239 Z-0.100
G01 F239 X3.953 Y22.429
G01 F239 X3.774 Y22.350
G01 F239 X3.616 Y22.235
G01 F239 X3.485 Y22.089
G01 F239 X3.387 Y21.920
G01 F239 X3.326 Y21.734
G01 F239 X3.306 Y21.539
G01 F239 X3.326 Y21.345
G01 F239 X3.387 Y21.159
G01 F239 X3.485 Y20.989
G01 F239 X3.616 Y20.844
G01 F239 X3.774 Y20.729
G01 F239 X3.953 Y20.649
G01 F239 X4.144 Y20.608
G01 F239 X5.864 Y20.608
G01 F239 X6.055 Y20.649
G01 F239 X6.234 Y20.729
G01 F239 X6.320 Y20.791
G01 F239 X7.599 Y19.782
G01 F239 X7.599 Y16.628
G01 F239 X7.606 Y16.569
G01 F239 X7.627 Y16.504
G01 F239 X7.661 Y16.445
G01 F239 X7.700 Y16.402
G01 F239 X8.665 Y15.513
G01 F239 X8.949 Y15.203
G01 F239 X9.327 Y14.905
G01 F239 X9.327 Y10.278
G01 F239 X9.333 Y10.219
G01 F239 X9.354 Y10.154
G01 F239 X9.388 Y10.095
G01 F239 X9.434 Y10.045
G01 F239 X9.489 Y10.004
G01 F239 X9.551 Y9.977
G01 F239 X9.601 Y9.966
G01 F239 X10.127 Y9.861
G01 F239 X15.630 Y9.861
G01 F239 X15.696 Y9.875
G01 F239 X15.759 Y9.903
G01 F239 X15.805 Y9.936
G01 F239 X17.851 Y11.701
G01 F239 X17.892 Y11.746
G01 F239 X17.926 Y11.805
G01 F239 X17.947 Y11.870
G01 F239 X17.953 Y11.929
G01 F239 X17.953 Y12.261
G01 F239 X18.422 Y12.730
G01 F239 X18.811 Y12.730
G01 F239 X18.811 Y14.092
G01 F239 X18.058 Y14.092
G01 F239 X18.058 Y13.286
G01 F239 X17.400 Y12.628
G01 F239 X17.364 Y12.587
G01 F239 X17.329 Y12.528
G01 F239 X17.308 Y12.463
G01 F239 X17.302 Y12.404
G01 F239 X17.302 Y12.087
G01 F239 X15.474 Y10.510
G01 F239 X10.193 Y10.510
G01 F239 X9.977 Y10.553
G01 F239 X9.977 Y15.071
G01 F239 X9.971 Y15.130
G01 F239 X9.950 Y15.195
G01 F239 X9.916 Y15.254
G01 F239 X9.873 Y15.302
G01 F239 X9.390 Y15.683
G01 F239 X9.115 Y15.984
G01 F239 X8.250 Y16.780
G01 F239 X8.250 Y19.948
G01 F239 X8.244 Y20.007
G01 F239 X8.223 Y20.072
G01 F239 X8.189 Y20.131
G01 F239 X8.146 Y20.179
G01 F239 X6.679 Y21.336
G01 F239 X6.681 Y21.345
G01 F239 X6.702 Y21.539
G01 F239 X6.681 Y21.734
G01 F239 X6.621 Y21.920
G01 F239 X6.523 Y22.089
G01 F239 X6.392 Y22.235
G01 F239 X6.234 Y22.350
G01 F239 X6.055 Y22.429
G01 F239 X5.864 Y22.470
G01 F239 X4.144 Y22.470
G00 F360 Z2.997
G00 F360 X24.973 Y21.007
G00 F180 Z0
G01 F239 Z-0.100
G01 F239 X24.973 Y20.257
G01 F239 X25.581 Y20.250
G01 F239 X25.635 Y20.250
G01 F239 X25.680 Y20.255
G01 F239 X26.164 Y20.275
G01 F239 X26.966 Y20.275
G01 F239 X30.866 Y16.376
G01 F239 X30.866 Y13.275
G01 F239 X30.872 Y13.216
G01 F239 X30.893 Y13.152
G01 F239 X30.927 Y13.092
G01 F239 X30.973 Y13.042
G01 F239 X31.020 Y13.007
G01 F239 X31.824 Y12.541
G01 F239 X31.878 Y12.517
G01 F239 X31.945 Y12.502
G01 F239 X33.740 Y12.502
G01 F239 X33.805 Y12.516
G01 F239 X35.167 Y13.093
G01 F239 X35.183 Y13.090
G01 F239 X36.902 Y13.090
G01 F239 X37.094 Y13.131
G01 F239 X37.273 Y13.210
G01 F239 X37.431 Y13.325
G01 F239 X37.562 Y13.471
G01 F239 X37.660 Y13.640
G01 F239 X37.720 Y13.826
G01 F239 X37.741 Y14.021
G01 F239 X37.720 Y14.215
G01 F239 X37.660 Y14.402
G01 F239 X37.562 Y14.571
G01 F239 X37.431 Y14.716
G01 F239 X37.273 Y14.831
G01 F239 X37.094 Y14.911
G01 F239 X36.902 Y14.952
G01 F239 X35.183 Y14.952
G01 F239 X34.991 Y14.911
G01 F239 X34.813 Y14.831
G01 F239 X34.654 Y14.716
G01 F239 X34.523 Y14.571
G01 F239 X34.426 Y14.402
G01 F239 X34.365 Y14.215
G01 F239 X34.345 Y14.021
G01 F239 X34.365 Y13.826
G01 F239 X34.426 Y13.640
G01 F239 X34.498 Y13.515
G01 F239 X33.639 Y13.152
G01 F239 X32.068 Y13.152
G01 F239 X31.517 Y13.472
G01 F239 X31.517 Y16.519
G01 F239 X31.510 Y16.578
G01 F239 X31.489 Y16.643
G01 F239 X31.455 Y16.702
G01 F239 X31.419 Y16.742
G01 F239 X27.317 Y20.845
G01 F239 X27.265 Y20.882
G01 F239 X27.203 Y20.910
G01 F239 X27.137 Y20.924
G01 F239 X26.335 Y20.931
G01 F239 X26.335 Y21.007
G01 F239 X24.973 Y21.007
G00 F360 Z2.997
G00 F360 X24.465 Y20.182
G00 F180 Z0
G01 F239 Z-0.100
G01 F239 X24.465 Y19.480
G01 F239 X26.335 Y19.480
G01 F239 X26.335 Y19.506
G01 F239 X26.617 Y19.506
G01 F239 X30.028 Y16.096
G01 F239 X30.028 Y12.335
G01 F239 X30.034 Y12.277
G01 F239 X30.055 Y12.212
G01 F239 X30.089 Y12.153
G01 F239 X30.135 Y12.102
G01 F239 X30.180 Y12.069
G01 F239 X30.881 Y11.628
G01 F239 X30.938 Y11.602
G01 F239 X31.005 Y11.588
G01 F239 X34.356 Y11.588
G01 F239 X34.345 Y11.481
G01 F239 X34.365 Y11.286
G01 F239 X34.426 Y11.100
G01 F239 X34.523 Y10.931
G01 F239 X34.654 Y10.785
G01 F239 X34.813 Y10.670
G01 F239 X34.991 Y10.591
G01 F239 X35.183 Y10.550
G01 F239 X36.902 Y10.550
G01 F239 X37.094 Y10.591
G01 F239 X37.273 Y10.670
G01 F239 X37.431 Y10.785
G01 F239 X37.562 Y10.931
G01 F239 X37.660 Y11.100
G01 F239 X37.720 Y11.286
G01 F239 X37.741 Y11.481
G01 F239 X37.720 Y11.675
G01 F239 X37.660 Y11.862
G01 F239 X37.562 Y12.031
G01 F239 X37.431 Y12.176
G01 F239 X37.273 Y12.291
G01 F239 X37.094 Y12.371
G01 F239 X36.902 Y12.412
G01 F239 X35.183 Y12.412
G01 F239 X34.991 Y12.371
G01 F239 X34.813 Y12.291
G01 F239 X34.738 Y12.237
G01 F239 X31.134 Y12.237
G01 F239 X30.678 Y12.524
G01 F239 X30.678 Y16.240
G01 F239 X30.672 Y16.299
G01 F239 X30.651 Y16.363
G01 F239 X30.617 Y16.422
G01 F239 X30.581 Y16.463
G01 F239 X26.968 Y20.076
G01 F239 X26.916 Y20.113
G01 F239 X26.854 Y20.141
G01 F239 X26.787 Y20.155
G01 F239 X26.335 Y20.155
G01 F239 X26.335 Y20.182
G01 F239 X24.465 Y20.182
G00 F360 Z2.997
G00 F360 X4.144 Y19.930
G00 F180 Z0
G01 F239 Z-0.100
G01 F239 X3.953 Y19.889
G01 F239 X3.774 Y19.810
G01 F239 X3.616 Y19.695
G01 F239 X3.485 Y19.549
G01 F239 X3.387 Y19.380
G01 F239 X3.326 Y19.194
G01 F239 X3.306 Y18.999
G01 F239 X3.326 Y18.805
G01 F239 X3.387 Y18.619
G01 F239 X3.485 Y18.449
G01 F239 X3.616 Y18.304
G01 F239 X3.774 Y18.189
G01 F239 X3.953 Y18.109
G01 F239 X4.144 Y18.068
G01 F239 X5.864 Y18.068
G01 F239 X6.055 Y18.109
G01 F239 X6.234 Y18.189
G01 F239 X6.392 Y18.304
G01 F239 X6.523 Y18.449
G01 F239 X6.607 Y18.595
G01 F239 X6.736 Y18.588
G01 F239 X6.736 Y17.339
G01 F239 X6.741 Y17.293
G01 F239 X7.049 Y15.522
G01 F239 X7.068 Y15.463
G01 F239 X7.102 Y15.404
G01 F239 X7.148 Y15.353
G01 F239 X7.194 Y15.319
G01 F239 X7.667 Y15.036
G01 F239 X8.462 Y14.152
G01 F239 X8.438 Y10.050
G01 F239 X8.444 Y9.991
G01 F239 X8.465 Y9.926
G01 F239 X8.499 Y9.867
G01 F239 X8.537 Y9.825
G01 F239 X9.159 Y9.228
G01 F239 X9.209 Y9.192
G01 F239 X9.272 Y9.164
G01 F239 X9.338 Y9.150
G01 F239 X16.036 Y9.150
G01 F239 X16.103 Y9.164
G01 F239 X16.165 Y9.192
G01 F239 X16.212 Y9.226
G01 F239 X19.045 Y11.701
G01 F239 X19.085 Y11.746
G01 F239 X19.120 Y11.805
G01 F239 X19.141 Y11.870
G01 F239 X19.147 Y11.929
G01 F239 X19.147 Y12.083
G01 F239 X19.462 Y12.398
G01 F239 X19.498 Y12.439
G01 F239 X19.533 Y12.498
G01 F239 X19.554 Y12.563
G01 F239 X19.560 Y12.621
G01 F239 X19.560 Y12.730
G01 F239 X19.585 Y12.730
G01 F239 X19.585 Y14.600
G01 F239 X18.884 Y14.600
G01 F239 X18.884 Y12.739
G01 F239 X18.594 Y12.450
G01 F239 X18.557 Y12.409
G01 F239 X18.523 Y12.350
G01 F239 X18.502 Y12.285
G01 F239 X18.496 Y12.226
G01 F239 X18.496 Y12.086
G01 F239 X15.879 Y9.799
G01 F239 X9.504 Y9.799
G01 F239 X9.089 Y10.196
G01 F239 X9.114 Y14.283
G01 F239 X9.108 Y14.343
G01 F239 X9.087 Y14.408
G01 F239 X9.052 Y14.467
G01 F239 X8.126 Y15.496
G01 F239 X8.092 Y15.533
G01 F239 X8.046 Y15.567
G01 F239 X7.661 Y15.798
G01 F239 X7.387 Y17.375
G01 F239 X7.387 Y18.907
G01 F239 X7.380 Y18.966
G01 F239 X7.359 Y19.030
G01 F239 X7.325 Y19.089
G01 F239 X7.280 Y19.140
G01 F239 X7.224 Y19.180
G01 F239 X7.162 Y19.208
G01 F239 X7.099 Y19.221
G01 F239 X6.665 Y19.243
G01 F239 X6.621 Y19.380
G01 F239 X6.523 Y19.549
G01 F239 X6.392 Y19.695
G01 F239 X6.234 Y19.810
G01 F239 X6.055 Y19.889
G01 F239 X5.864 Y19.930
G01 F239 X4.144 Y19.930
G00 F360 Z2.997
G00 F360 X12.695 Y19.463
G00 F180 Z0
G01 F239 Z-0.100
G01 F239 X13.009 Y19.170
G01 F239 X13.328 Y18.829
G01 F239 X12.695 Y18.829
G01 F239 X12.695 Y19.463
G00 F360 Z2.997
G00 F360 X24.465 Y19.382
G00 F180 Z0
G01 F239 Z-0.100
G01 F239 X24.465 Y18.680
G01 F239 X26.335 Y18.680
G01 F239 X26.335 Y19.382
G01 F239 X24.465 Y19.382
G00 F360 Z2.997
G00 F360 X4.144 Y17.390
G00 F180 Z0
G01 F239 Z-0.100
G01 F239 X3.953 Y17.349
G01 F239 X3.774 Y17.270
G01 F239 X3.616 Y17.155
G01 F239 X3.485 Y17.009
G01 F239 X3.387 Y16.840
G01 F239 X3.326 Y16.654
G01 F239 X3.306 Y16.459
G01 F239 X3.326 Y16.265
G01 F239 X3.387 Y16.079
G01 F239 X3.485 Y15.909
G01 F239 X3.616 Y15.764
G01 F239 X3.774 Y15.649
G01 F239 X3.953 Y15.569
G01 F239 X4.144 Y15.528
G01 F239 X5.569 Y15.528
G01 F239 X6.697 Y14.536
G01 F239 X7.703 Y13.759
G01 F239 X7.726 Y11.712
G01 F239 X7.701 Y9.568
G01 F239 X7.707 Y9.508
G01 F239 X7.728 Y9.443
G01 F239 X7.762 Y9.384
G01 F239 X7.805 Y9.337
G01 F239 X8.911 Y8.436
G01 F239 X8.955 Y8.404
G01 F239 X9.018 Y8.376
G01 F239 X9.085 Y8.362
G01 F239 X16.189 Y8.362
G01 F239 X16.255 Y8.376
G01 F239 X16.318 Y8.404
G01 F239 X16.358 Y8.434
G01 F239 X19.624 Y10.832
G01 F239 X19.668 Y10.881
G01 F239 X20.186 Y11.735
G01 F239 X20.212 Y11.780
G01 F239 X20.232 Y11.843
G01 F239 X20.347 Y12.730
G01 F239 X20.385 Y12.730
G01 F239 X20.385 Y14.600
G01 F239 X19.684 Y14.600
G01 F239 X19.684 Y12.730
G01 F239 X19.692 Y12.730
G01 F239 X19.600 Y12.022
G01 F239 X19.161 Y11.297
G01 F239 X16.048 Y9.011
G01 F239 X9.235 Y9.011
G01 F239 X8.354 Y9.729
G01 F239 X8.377 Y11.709
G01 F239 X8.352 Y13.929
G01 F239 X8.346 Y13.987
G01 F239 X8.325 Y14.052
G01 F239 X8.290 Y14.111
G01 F239 X8.247 Y14.160
G01 F239 X7.121 Y15.029
G01 F239 X6.334 Y15.722
G01 F239 X6.392 Y15.764
G01 F239 X6.523 Y15.909
G01 F239 X6.621 Y16.079
G01 F239 X6.681 Y16.265
G01 F239 X6.702 Y16.459
G01 F239 X6.681 Y16.654
G01 F239 X6.621 Y16.840
G01 F239 X6.523 Y17.009
G01 F239 X6.392 Y17.155
G01 F239 X6.234 Y17.270
G01 F239 X6.055 Y17.349
G01 F239 X5.864 Y17.390
G01 F239 X4.144 Y17.390
G00 F360 Z2.997
G00 F360 X24.465 Y16.982
G00 F180 Z0
G01 F239 Z-0.100
G01 F239 X24.465 Y16.280
G01 F239 X26.335 Y16.280
G01 F239 X26.335 Y16.982
G01 F239 X24.465 Y16.982
G00 F360 Z2.997
G00 F360 X12.336 Y16.504
G00 F180 Z0
G01 F239 Z-0.100
G01 F239 X12.269 Y16.490
G01 F239 X12.207 Y16.462
G01 F239 X12.155 Y16.425
G01 F239 X11.315 Y15.585
G01 F239 X11.031 Y15.585
G01 F239 X11.031 Y11.339
G01 F239 X12.177 Y11.339
G01 F239 X12.177 Y15.527
G01 F239 X12.505 Y15.855
G01 F239 X14.800 Y15.855
G01 F239 X15.070 Y15.586
G01 F239 X15.121 Y15.548
G01 F239 X15.183 Y15.520
G01 F239 X15.250 Y15.506
G01 F239 X16.134 Y15.506
G01 F239 X16.134 Y15.480
G01 F239 X18.004 Y15.480
G01 F239 X18.004 Y16.182
G01 F239 X16.134 Y16.182
G01 F239 X16.134 Y16.155
G01 F239 X15.420 Y16.155
G01 F239 X15.150 Y16.425
G01 F239 X15.098 Y16.462
G01 F239 X15.036 Y16.490
G01 F239 X14.969 Y16.504
G01 F239 X12.336 Y16.504
G00 F360 Z2.997
G00 F360 X13.731 Y15.585
G00 F180 Z0
G01 F239 Z-0.100
G01 F239 X13.731 Y11.339
G01 F239 X14.877 Y11.339
G01 F239 X14.877 Y14.450
G01 F239 X15.077 Y14.679
G01 F239 X16.141 Y14.630
G01 F239 X16.187 Y14.630
G01 F239 X16.397 Y14.655
G01 F239 X17.496 Y14.655
G01 F239 X17.496 Y15.407
G01 F239 X16.134 Y15.407
G01 F239 X16.134 Y15.281
G01 F239 X14.955 Y15.336
G01 F239 X14.901 Y15.336
G01 F239 X14.877 Y15.331
G01 F239 X14.877 Y15.585
G01 F239 X13.731 Y15.585
G00 F360 Z2.997
G00 F360 X24.973 Y15.407
G00 F180 Z0
G01 F239 Z-0.100
G01 F239 X24.973 Y14.683
G01 F239 X25.075 Y14.665
G01 F239 X25.075 Y13.742
G01 F239 X25.050 Y6.343
G01 F239 X24.903 Y6.449
G01 F239 X24.724 Y6.529
G01 F239 X24.533 Y6.570
G01 F239 X24.337 Y6.570
G01 F239 X24.146 Y6.529
G01 F239 X23.967 Y6.449
G01 F239 X23.809 Y6.334
G01 F239 X23.678 Y6.189
G01 F239 X23.580 Y6.019
G01 F239 X23.519 Y5.833
G01 F239 X23.500 Y5.648
G01 F239 X23.500 Y4.106
G01 F239 X23.519 Y3.920
G01 F239 X23.580 Y3.734
G01 F239 X23.678 Y3.565
G01 F239 X23.809 Y3.419
G01 F239 X23.967 Y3.304
G01 F239 X24.146 Y3.225
G01 F239 X24.337 Y3.184
G01 F239 X24.533 Y3.184
G01 F239 X24.592 Y3.197
G01 F239 X24.592 Y3.026
G01 F239 X24.464 Y2.966
G01 F239 X4.333 Y2.966
G01 F239 X4.320 Y3.828
G01 F239 X4.885 Y3.828
G01 F239 X4.885 Y5.977
G01 F239 X2.939 Y5.977
G01 F239 X2.939 Y3.828
G01 F239 X3.669 Y3.828
G01 F239 X3.688 Y2.631
G01 F239 X3.694 Y2.574
G01 F239 X3.715 Y2.509
G01 F239 X3.749 Y2.450
G01 F239 X3.795 Y2.399
G01 F239 X3.850 Y2.359
G01 F239 X3.912 Y2.331
G01 F239 X3.979 Y2.317
G01 F239 X24.571 Y2.317
G01 F239 X24.637 Y2.331
G01 F239 X24.684 Y2.352
G01 F239 X25.082 Y2.538
G01 F239 X25.136 Y2.577
G01 F239 X25.181 Y2.628
G01 F239 X25.216 Y2.687
G01 F239 X25.237 Y2.752
G01 F239 X25.243 Y2.810
G01 F239 X25.243 Y3.653
G01 F239 X25.290 Y3.734
G01 F239 X25.350 Y3.920
G01 F239 X25.370 Y4.106
G01 F239 X25.370 Y5.630
G01 F239 X25.644 Y6.014
G01 F239 X25.673 Y6.065
G01 F239 X25.694 Y6.130
G01 F239 X25.700 Y6.188
G01 F239 X25.725 Y13.741
G01 F239 X25.725 Y14.642
G01 F239 X25.738 Y14.655
G01 F239 X26.335 Y14.655
G01 F239 X26.335 Y15.407
G01 F239 X24.973 Y15.407
G00 F360 Z2.997
G00 F360 X21.283 Y14.600
G00 F180 Z0
G01 F239 Z-0.100
G01 F239 X21.290 Y12.903
G01 F239 X21.290 Y10.281
G01 F239 X20.791 Y10.281
G01 F239 X20.719 Y10.266
G01 F239 X20.656 Y10.238
G01 F239 X17.263 Y8.018
G01 F239 X17.214 Y7.983
G01 F239 X17.165 Y7.928
G01 F239 X17.128 Y7.865
G01 F239 X17.126 Y7.858
G01 F239 X16.665 Y7.397
G01 F239 X15.283 Y6.936
G01 F239 X15.229 Y6.912
G01 F239 X15.174 Y6.872
G01 F239 X15.128 Y6.821
G01 F239 X15.098 Y6.769
G01 F239 X14.922 Y6.359
G01 F239 X14.911 Y6.351
G01 F239 X14.898 Y6.336
G01 F239 X14.743 Y6.449
G01 F239 X14.564 Y6.529
G01 F239 X14.373 Y6.570
G01 F239 X14.177 Y6.570
G01 F239 X13.986 Y6.529
G01 F239 X13.807 Y6.449
G01 F239 X13.649 Y6.334
G01 F239 X13.518 Y6.189
G01 F239 X13.420 Y6.019
G01 F239 X13.359 Y5.833
G01 F239 X13.340 Y5.648
G01 F239 X13.340 Y4.106
G01 F239 X13.359 Y3.920
G01 F239 X13.420 Y3.734
G01 F239 X13.518 Y3.565
G01 F239 X13.649 Y3.419
G01 F239 X13.807 Y3.304
G01 F239 X13.986 Y3.225
G01 F239 X14.177 Y3.184
G01 F239 X14.373 Y3.184
G01 F239 X14.564 Y3.225
G01 F239 X14.743 Y3.304
G01 F239 X14.901 Y3.419
G01 F239 X15.032 Y3.565
G01 F239 X15.130 Y3.734
G01 F239 X15.190 Y3.920
G01 F239 X15.210 Y4.105
G01 F239 X15.217 Y5.143
G01 F239 X15.513 Y5.931
G01 F239 X15.533 Y5.992
G01 F239 X15.542 Y6.077
G01 F239 X15.534 Y6.117
G01 F239 X15.637 Y6.368
G01 F239 X16.950 Y6.806
G01 F239 X17.003 Y6.829
G01 F239 X17.054 Y6.866
G01 F239 X17.604 Y7.407
G01 F239 X17.622 Y7.415
G01 F239 X20.934 Y9.582
G01 F239 X21.678 Y9.582
G01 F239 X21.750 Y9.597
G01 F239 X21.817 Y9.627
G01 F239 X21.876 Y9.670
G01 F239 X21.925 Y9.725
G01 F239 X21.962 Y9.788
G01 F239 X21.985 Y9.858
G01 F239 X21.992 Y9.922
G01 F239 X21.992 Y13.576
G01 F239 X21.985 Y13.620
G01 F239 X21.985 Y14.600
G01 F239 X21.283 Y14.600
G00 F360 Z2.997
G00 F360 X20.484 Y14.600
G00 F180 Z0
G01 F239 Z-0.100
G01 F239 X20.481 Y13.585
G01 F239 X20.477 Y13.549
G01 F239 X20.429 Y11.421
G01 F239 X19.627 Y10.663
G01 F239 X16.121 Y8.173
G01 F239 X12.229 Y8.173
G01 F239 X12.152 Y8.157
G01 F239 X12.080 Y8.124
G01 F239 X12.016 Y8.078
G01 F239 X11.963 Y8.020
G01 F239 X11.924 Y7.951
G01 F239 X11.901 Y7.883
G01 F239 X11.662 Y6.570
G01 F239 X11.637 Y6.570
G01 F239 X11.446 Y6.529
G01 F239 X11.267 Y6.449
G01 F239 X11.109 Y6.334
G01 F239 X10.978 Y6.189
G01 F239 X10.880 Y6.019
G01 F239 X10.819 Y5.833
G01 F239 X10.800 Y5.648
G01 F239 X10.800 Y4.106
G01 F239 X10.819 Y3.920
G01 F239 X10.880 Y3.734
G01 F239 X10.978 Y3.565
G01 F239 X11.109 Y3.419
G01 F239 X11.267 Y3.304
G01 F239 X11.446 Y3.225
G01 F239 X11.637 Y3.184
G01 F239 X11.833 Y3.184
G01 F239 X12.024 Y3.225
G01 F239 X12.203 Y3.304
G01 F239 X12.361 Y3.419
G01 F239 X12.492 Y3.565
G01 F239 X12.590 Y3.734
G01 F239 X12.650 Y3.920
G01 F239 X12.670 Y4.106
G01 F239 X12.670 Y5.648
G01 F239 X12.650 Y5.833
G01 F239 X12.590 Y6.019
G01 F239 X12.492 Y6.189
G01 F239 X12.380 Y6.314
G01 F239 X12.582 Y7.423
G01 F239 X16.194 Y7.423
G01 F239 X16.271 Y7.439
G01 F239 X16.343 Y7.471
G01 F239 X16.407 Y7.518
G01 F239 X16.460 Y7.576
G01 F239 X16.499 Y7.644
G01 F239 X20.015 Y10.142
G01 F239 X20.050 Y10.167
G01 F239 X20.929 Y10.988
G01 F239 X20.953 Y10.998
G01 F239 X21.013 Y11.042
G01 F239 X21.062 Y11.096
G01 F239 X21.099 Y11.160
G01 F239 X21.121 Y11.230
G01 F239 X21.128 Y11.291
G01 F239 X21.185 Y12.900
G01 F239 X21.185 Y14.600
G01 F239 X20.484 Y14.600
G00 F360 Z2.997
G00 F360 X22.884 Y14.600
G00 F180 Z0
G01 F239 Z-0.100
G01 F239 X22.884 Y13.666
G01 F239 X22.858 Y10.551
G01 F239 X22.866 Y10.480
G01 F239 X22.884 Y10.435
G01 F239 X22.890 Y9.141
G01 F239 X22.071 Y7.437
G01 F239 X21.030 Y7.439
G01 F239 X21.013 Y7.447
G01 F239 X20.941 Y7.462
G01 F239 X20.867 Y7.462
G01 F239 X20.796 Y7.447
G01 F239 X20.728 Y7.417
G01 F239 X20.669 Y7.373
G01 F239 X20.625 Y7.324
G01 F239 X19.949 Y6.357
G01 F239 X19.823 Y6.449
G01 F239 X19.644 Y6.529
G01 F239 X19.453 Y6.570
G01 F239 X19.257 Y6.570
G01 F239 X19.066 Y6.529
G01 F239 X18.887 Y6.449
G01 F239 X18.729 Y6.334
G01 F239 X18.598 Y6.189
G01 F239 X18.500 Y6.019
G01 F239 X18.439 Y5.833
G01 F239 X18.420 Y5.648
G01 F239 X18.420 Y4.106
G01 F239 X18.439 Y3.920
G01 F239 X18.500 Y3.734
G01 F239 X18.598 Y3.565
G01 F239 X18.729 Y3.419
G01 F239 X18.887 Y3.304
G01 F239 X19.066 Y3.225
G01 F239 X19.257 Y3.184
G01 F239 X19.453 Y3.184
G01 F239 X19.644 Y3.225
G01 F239 X19.823 Y3.304
G01 F239 X19.981 Y3.419
G01 F239 X20.112 Y3.565
G01 F239 X20.210 Y3.734
G01 F239 X20.270 Y3.920
G01 F239 X20.290 Y4.106
G01 F239 X20.288 Y5.607
G01 F239 X21.106 Y6.787
G01 F239 X22.310 Y6.787
G01 F239 X22.377 Y6.802
G01 F239 X22.439 Y6.829
G01 F239 X22.494 Y6.870
G01 F239 X22.540 Y6.920
G01 F239 X22.568 Y6.969
G01 F239 X23.516 Y8.941
G01 F239 X23.535 Y9.000
G01 F239 X23.541 Y9.059
G01 F239 X23.544 Y10.460
G01 F239 X23.553 Y10.487
G01 F239 X23.560 Y10.550
G01 F239 X23.585 Y12.902
G01 F239 X23.585 Y14.600
G01 F239 X22.884 Y14.600
G00 F360 Z2.997
G00 F360 X22.084 Y14.600
G00 F180 Z0
G01 F239 Z-0.100
G01 F239 X22.084 Y12.730
G01 F239 X22.113 Y12.730
G01 F239 X22.127 Y9.473
G01 F239 X20.900 Y8.681
G01 F239 X20.890 Y8.681
G01 F239 X20.813 Y8.665
G01 F239 X20.744 Y8.634
G01 F239 X20.279 Y8.324
G01 F239 X17.380 Y6.594
G01 F239 X17.324 Y6.554
G01 F239 X17.272 Y6.495
G01 F239 X17.253 Y6.463
G01 F239 X17.104 Y6.529
G01 F239 X16.913 Y6.570
G01 F239 X16.717 Y6.570
G01 F239 X16.526 Y6.529
G01 F239 X16.347 Y6.449
G01 F239 X16.189 Y6.334
G01 F239 X16.058 Y6.189
G01 F239 X15.960 Y6.019
G01 F239 X15.899 Y5.833
G01 F239 X15.880 Y5.648
G01 F239 X15.880 Y4.106
G01 F239 X15.899 Y3.920
G01 F239 X15.960 Y3.734
G01 F239 X16.058 Y3.565
G01 F239 X16.189 Y3.419
G01 F239 X16.347 Y3.304
G01 F239 X16.526 Y3.225
G01 F239 X16.717 Y3.184
G01 F239 X16.913 Y3.184
G01 F239 X17.104 Y3.225
G01 F239 X17.283 Y3.304
G01 F239 X17.441 Y3.419
G01 F239 X17.572 Y3.565
G01 F239 X17.670 Y3.734
G01 F239 X17.730 Y3.920
G01 F239 X17.750 Y4.106
G01 F239 X17.750 Y5.649
G01 F239 X17.734 Y5.778
G01 F239 X17.857 Y6.003
G01 F239 X20.666 Y7.679
G01 F239 X21.130 Y7.988
G01 F239 X21.182 Y8.026
G01 F239 X21.235 Y8.084
G01 F239 X21.265 Y8.136
G01 F239 X22.628 Y9.022
G01 F239 X22.672 Y9.054
G01 F239 X22.718 Y9.105
G01 F239 X22.752 Y9.164
G01 F239 X22.773 Y9.229
G01 F239 X22.779 Y9.287
G01 F239 X22.785 Y12.903
G01 F239 X22.785 Y14.600
G01 F239 X22.084 Y14.600
G00 F360 Z2.997
G00 F360 X23.658 Y14.092
G00 F180 Z0
G01 F239 Z-0.100
G01 F239 X23.658 Y12.730
G01 F239 X23.715 Y12.730
G01 F239 X23.753 Y8.424
G01 F239 X22.460 Y6.379
G01 F239 X22.363 Y6.449
G01 F239 X22.184 Y6.529
G01 F239 X21.993 Y6.570
G01 F239 X21.797 Y6.570
G01 F239 X21.606 Y6.529
G01 F239 X21.427 Y6.449
G01 F239 X21.268 Y6.334
G01 F239 X21.138 Y6.189
G01 F239 X21.040 Y6.019
G01 F239 X20.979 Y5.833
G01 F239 X20.960 Y5.648
G01 F239 X20.960 Y4.106
G01 F239 X20.979 Y3.920
G01 F239 X21.040 Y3.734
G01 F239 X21.138 Y3.565
G01 F239 X21.268 Y3.419
G01 F239 X21.427 Y3.304
G01 F239 X21.606 Y3.225
G01 F239 X21.797 Y3.184
G01 F239 X21.993 Y3.184
G01 F239 X22.184 Y3.225
G01 F239 X22.363 Y3.304
G01 F239 X22.521 Y3.419
G01 F239 X22.652 Y3.565
G01 F239 X22.750 Y3.734
G01 F239 X22.810 Y3.920
G01 F239 X22.830 Y4.106
G01 F239 X22.830 Y5.648
G01 F239 X22.821 Y5.733
G01 F239 X24.351 Y8.152
G01 F239 X24.377 Y8.199
G01 F239 X24.398 Y8.263
G01 F239 X24.405 Y8.323
G01 F239 X24.366 Y12.730
G01 F239 X24.411 Y12.730
G01 F239 X24.411 Y14.092
G01 F239 X23.658 Y14.092
G00 F360 Z2.997
G00 F360 X31.882 Y9.368
G00 F180 Z0
G01 F239 Z-0.100
G01 F239 X31.882 Y6.736
G01 F239 X32.415 Y6.736
G01 F239 X32.415 Y4.766
G01 F239 X32.422 Y4.697
G01 F239 X32.447 Y4.622
G01 F239 X32.486 Y4.554
G01 F239 X32.539 Y4.495
G01 F239 X32.603 Y4.449
G01 F239 X32.675 Y4.417
G01 F239 X32.752 Y4.400
G01 F239 X33.177 Y4.400
G01 F239 X33.177 Y4.355
G01 F239 X34.023 Y3.510
G01 F239 X35.218 Y3.510
G01 F239 X36.063 Y4.355
G01 F239 X36.063 Y5.551
G01 F239 X35.218 Y6.396
G01 F239 X34.023 Y6.396
G01 F239 X33.177 Y5.551
G01 F239 X33.177 Y5.150
G01 F239 X33.169 Y5.150
G01 F239 X33.172 Y6.736
G01 F239 X33.752 Y6.736
G01 F239 X33.752 Y9.368
G01 F239 X31.882 Y9.368
G00 F360 Z2.997
G00 F360 X5.961 Y8.390
G00 F180 Z0
G01 F239 Z-0.100
G01 F239 X5.961 Y6.241
G01 F239 X6.632 Y6.241
G01 F239 X6.638 Y5.977
G01 F239 X5.783 Y5.977
G01 F239 X5.783 Y3.828
G01 F239 X7.729 Y3.828
G01 F239 X7.729 Y5.977
G01 F239 X7.293 Y5.977
G01 F239 X7.286 Y6.241
G01 F239 X7.907 Y6.241
G01 F239 X7.907 Y8.390
G01 F239 X5.961 Y8.390
G00 F360 Z2.997
G00 F360 X30.657 Y38.277
G00 F180 Z0
G01 F239 Z-0.100
G01 F239 X30.463 Y38.257
G01 F239 X30.319 Y38.174
G01 F239 X29.595 Y37.449
G01 F239 X29.509 Y37.331
G01 F239 X29.477 Y37.179
G01 F239 X29.477 Y35.762
G01 F239 X29.509 Y35.610
G01 F239 X29.624 Y35.452
G01 F239 X29.793 Y35.354
G01 F239 X29.988 Y35.334
G01 F239 X30.174 Y35.394
G01 F239 X30.335 Y35.539
G01 F239 X30.401 Y35.742
G01 F239 X30.400 Y36.344
G01 F239 X30.816 Y36.344
G01 F239 X30.816 Y35.762
G01 F239 X30.848 Y35.610
G01 F239 X30.963 Y35.452
G01 F239 X31.132 Y35.354
G01 F239 X31.327 Y35.334
G01 F239 X31.513 Y35.394
G01 F239 X31.612 Y35.484
G01 F239 X31.648 Y35.435
G01 F239 X31.862 Y35.340
G01 F239 X33.043 Y35.340
G01 F239 X33.229 Y35.423
G01 F239 X33.511 Y35.706
G01 F239 X33.532 Y35.610
G01 F239 X33.647 Y35.452
G01 F239 X33.816 Y35.354
G01 F239 X34.011 Y35.334
G01 F239 X34.196 Y35.394
G01 F239 X34.357 Y35.539
G01 F239 X34.423 Y35.742
G01 F239 X34.423 Y36.025
G01 F239 X35.012 Y35.437
G01 F239 X35.155 Y35.354
G01 F239 X35.349 Y35.334
G01 F239 X35.535 Y35.394
G01 F239 X35.635 Y35.484
G01 F239 X35.670 Y35.435
G01 F239 X35.884 Y35.340
G01 F239 X36.711 Y35.340
G01 F239 X36.877 Y35.394
G01 F239 X37.023 Y35.525
G01 F239 X37.102 Y35.703
G01 F239 X37.102 Y35.899
G01 F239 X37.023 Y36.078
G01 F239 X36.877 Y36.209
G01 F239 X36.769 Y36.244
G01 F239 X36.768 Y37.367
G01 F239 X36.877 Y37.402
G01 F239 X36.976 Y37.491
G01 F239 X37.011 Y37.443
G01 F239 X37.225 Y37.348
G01 F239 X37.521 Y37.348
G01 F239 X37.521 Y35.762
G01 F239 X37.554 Y35.610
G01 F239 X37.668 Y35.452
G01 F239 X37.838 Y35.354
G01 F239 X38.032 Y35.334
G01 F239 X38.218 Y35.394
G01 F239 X38.379 Y35.539
G01 F239 X38.445 Y35.742
G01 F239 X38.444 Y37.348
G01 F239 X38.721 Y37.348
G01 F239 X38.888 Y37.402
G01 F239 X39.033 Y37.533
G01 F239 X39.112 Y37.712
G01 F239 X39.112 Y37.907
G01 F239 X39.033 Y38.086
G01 F239 X38.888 Y38.217
G01 F239 X38.721 Y38.271
G01 F239 X37.303 Y38.271
G01 F239 X37.168 Y38.257
G01 F239 X36.999 Y38.159
G01 F239 X36.976 Y38.128
G01 F239 X36.877 Y38.217
G01 F239 X36.711 Y38.271
G01 F239 X35.962 Y38.271
G01 F239 X35.827 Y38.257
G01 F239 X35.658 Y38.159
G01 F239 X35.635 Y38.127
G01 F239 X35.535 Y38.217
G01 F239 X35.349 Y38.277
G01 F239 X35.154 Y38.257
G01 F239 X35.012 Y38.174
G01 F239 X34.422 Y37.584
G01 F239 X34.421 Y37.908
G01 F239 X34.342 Y38.086
G01 F239 X34.197 Y38.217
G01 F239 X34.011 Y38.277
G01 F239 X33.816 Y38.257
G01 F239 X33.647 Y38.159
G01 F239 X33.532 Y38.001
G01 F239 X33.511 Y37.905
G01 F239 X33.283 Y38.133
G01 F239 X33.189 Y38.217
G01 F239 X33.023 Y38.271
G01 F239 X31.940 Y38.271
G01 F239 X31.805 Y38.257
G01 F239 X31.636 Y38.159
G01 F239 X31.521 Y38.001
G01 F239 X31.488 Y37.849
G01 F239 X31.488 Y37.582
G01 F239 X30.937 Y38.133
G01 F239 X30.843 Y38.217
G01 F239 X30.657 Y38.277
G00 F360 Z2.997
G00 F360 X27.917 Y38.271
G00 F180 Z0
G01 F239 Z-0.100
G01 F239 X27.782 Y38.257
G01 F239 X27.613 Y38.159
G01 F239 X27.498 Y38.001
G01 F239 X27.465 Y37.849
G01 F239 X27.465 Y35.762
G01 F239 X27.498 Y35.610
G01 F239 X27.613 Y35.452
G01 F239 X27.782 Y35.354
G01 F239 X27.977 Y35.334
G01 F239 X28.163 Y35.394
G01 F239 X28.323 Y35.539
G01 F239 X28.389 Y35.742
G01 F239 X28.389 Y36.344
G01 F239 X28.665 Y36.344
G01 F239 X28.832 Y36.398
G01 F239 X28.977 Y36.529
G01 F239 X29.057 Y36.708
G01 F239 X29.057 Y36.903
G01 F239 X28.977 Y37.082
G01 F239 X28.832 Y37.213
G01 F239 X28.665 Y37.267
G01 F239 X28.388 Y37.267
G01 F239 X28.388 Y37.348
G01 F239 X29.334 Y37.348
G01 F239 X29.501 Y37.402
G01 F239 X29.647 Y37.533
G01 F239 X29.726 Y37.712
G01 F239 X29.726 Y37.907
G01 F239 X29.647 Y38.086
G01 F239 X29.501 Y38.217
G01 F239 X29.335 Y38.271
G01 F239 X27.917 Y38.271
G00 F360 Z2.997
G00 F360 X35.635 Y37.492
G00 F180 Z0
G01 F239 Z-0.100
G01 F239 X35.670 Y37.444
G01 F239 X35.846 Y37.366
G01 F239 X35.846 Y36.251
G01 F239 X35.827 Y36.249
G01 F239 X35.658 Y36.151
G01 F239 X35.635 Y36.119
G01 F239 X34.947 Y36.805
G01 F239 X35.635 Y37.492
G00 F360 Z2.997
G00 F360 X32.411 Y37.348
G00 F180 Z0
G01 F239 Z-0.100
G01 F239 X32.762 Y37.348
G01 F239 X32.803 Y37.308
G01 F239 X32.763 Y37.267
G01 F239 X32.411 Y37.267
G01 F239 X32.411 Y37.348
G00 F360 Z2.997
G00 F360 X2.099 Y37.278
G00 F180 Z0
G01 F239 Z-0.100
G01 F239 X1.980 Y37.253
G01 F239 X1.870 Y37.204
G01 F239 X1.772 Y37.133
G01 F239 X1.691 Y37.043
G01 F239 X1.631 Y36.938
G01 F239 X1.593 Y36.823
G01 F239 X1.583 Y36.723
G01 F239 X1.583 Y11.258
G01 F239 X1.593 Y11.157
G01 F239 X1.631 Y11.042
G01 F239 X1.691 Y10.938
G01 F239 X1.772 Y10.848
G01 F239 X1.870 Y10.777
G01 F239 X1.980 Y10.728
G01 F239 X2.099 Y10.703
G01 F239 X2.220 Y10.703
G01 F239 X2.297 Y10.719
G01 F239 X2.668 Y10.651
G01 F239 X2.750 Y10.651
G01 F239 X3.329 Y10.703
G01 F239 X3.481 Y10.534
G01 F239 X3.673 Y10.394
G01 F239 X3.891 Y10.298
G01 F239 X4.123 Y10.248
G01 F239 X5.885 Y10.248
G01 F239 X6.039 Y10.281
G01 F239 X5.595 Y9.897
G01 F239 X2.688 Y9.897
G01 F239 X2.580 Y9.874
G01 F239 X2.479 Y9.829
G01 F239 X2.390 Y9.764
G01 F239 X2.317 Y9.683
G01 F239 X2.261 Y9.587
G01 F239 X2.237 Y9.512
G01 F239 X1.820 Y8.001
G01 F239 X1.811 Y7.919
G01 F239 X1.811 Y2.800
G01 F239 X1.821 Y2.710
G01 F239 X1.855 Y2.605
G01 F239 X1.910 Y2.510
G01 F239 X1.964 Y2.449
G01 F239 X2.906 Y1.507
G01 F239 X2.987 Y1.448
G01 F239 X3.088 Y1.403
G01 F239 X3.196 Y1.380
G01 F239 X27.182 Y1.380
G01 F239 X27.290 Y1.403
G01 F239 X27.391 Y1.448
G01 F239 X27.480 Y1.513
G01 F239 X27.554 Y1.595
G01 F239 X27.609 Y1.691
G01 F239 X27.643 Y1.795
G01 F239 X27.654 Y1.902
G01 F239 X27.546 Y3.132
G01 F239 X27.736 Y3.270
G01 F239 X27.895 Y3.447
G01 F239 X28.014 Y3.652
G01 F239 X28.087 Y3.878
G01 F239 X28.110 Y4.095
G01 F239 X28.110 Y5.032
G01 F239 X28.445 Y6.536
G01 F239 X28.826 Y6.536
G01 F239 X28.754 Y6.484
G01 F239 X28.595 Y6.307
G01 F239 X28.476 Y6.101
G01 F239 X28.403 Y5.875
G01 F239 X28.380 Y5.658
G01 F239 X28.380 Y4.095
G01 F239 X28.403 Y3.878
G01 F239 X28.476 Y3.652
G01 F239 X28.595 Y3.447
G01 F239 X28.754 Y3.270
G01 F239 X28.946 Y3.130
G01 F239 X29.164 Y3.033
G01 F239 X29.396 Y2.984
G01 F239 X29.634 Y2.984
G01 F239 X29.777 Y3.014
G01 F239 X29.777 Y2.647
G01 F239 X29.787 Y2.547
G01 F239 X29.825 Y2.432
G01 F239 X29.885 Y2.327
G01 F239 X29.946 Y2.259
G01 F239 X30.355 Y1.850
G01 F239 X30.445 Y1.785
G01 F239 X30.555 Y1.736
G01 F239 X30.674 Y1.711
G01 F239 X36.458 Y1.711
G01 F239 X36.576 Y1.736
G01 F239 X36.687 Y1.785
G01 F239 X36.741 Y1.825
G01 F239 X38.612 Y1.825
G01 F239 X38.612 Y2.575
G01 F239 X39.100 Y2.575
G01 F239 X39.218 Y2.600
G01 F239 X39.329 Y2.649
G01 F239 X39.427 Y2.720
G01 F239 X39.508 Y2.810
G01 F239 X39.568 Y2.914
G01 F239 X39.605 Y3.029
G01 F239 X39.618 Y3.150
G01 F239 X39.605 Y3.270
G01 F239 X39.565 Y3.394
G01 F239 X39.540 Y31.973
G01 F239 X39.530 Y32.063
G01 F239 X39.496 Y32.168
G01 F239 X39.441 Y32.263
G01 F239 X39.367 Y32.345
G01 F239 X39.278 Y32.410
G01 F239 X39.177 Y32.455
G01 F239 X39.070 Y32.478
G01 F239 X38.998 Y32.478
G01 F239 X32.736 Y32.452
G01 F239 X32.628 Y32.429
G01 F239 X32.528 Y32.385
G01 F239 X32.436 Y32.318
G01 F239 X32.363 Y32.235
G01 F239 X31.678 Y31.078
G01 F239 X29.951 Y31.058
G01 F239 X28.411 Y32.520
G01 F239 X28.880 Y32.520
G01 F239 X29.041 Y32.573
G01 F239 X29.085 Y32.612
G01 F239 X29.220 Y32.534
G01 F239 X29.410 Y32.514
G01 F239 X29.591 Y32.573
G01 F239 X29.708 Y32.679
G01 F239 X30.550 Y33.941
G01 F239 X30.550 Y33.201
G01 F239 X30.581 Y33.055
G01 F239 X30.663 Y32.941
G01 F239 X31.004 Y32.600
G01 F239 X31.183 Y32.520
G01 F239 X31.900 Y32.520
G01 F239 X32.078 Y32.600
G01 F239 X32.472 Y32.996
G01 F239 X32.533 Y33.182
G01 F239 X32.531 Y34.441
G01 F239 X32.433 Y34.611
G01 F239 X32.130 Y34.912
G01 F239 X32.041 Y34.992
G01 F239 X31.879 Y35.045
G01 F239 X31.258 Y35.045
G01 F239 X31.129 Y35.031
G01 F239 X30.990 Y34.951
G01 F239 X30.843 Y34.805
G01 F239 X30.816 Y34.865
G01 F239 X30.675 Y34.992
G01 F239 X30.494 Y35.051
G01 F239 X30.284 Y35.029
G01 F239 X30.111 Y34.903
G01 F239 X29.070 Y33.340
G01 F239 X29.041 Y33.366
G01 F239 X28.990 Y33.382
G01 F239 X28.990 Y34.183
G01 F239 X29.041 Y34.200
G01 F239 X29.183 Y34.327
G01 F239 X29.260 Y34.501
G01 F239 X29.260 Y34.691
G01 F239 X29.183 Y34.865
G01 F239 X29.041 Y34.992
G01 F239 X28.880 Y35.045
G01 F239 X28.259 Y35.045
G01 F239 X28.129 Y35.031
G01 F239 X27.964 Y34.936
G01 F239 X27.852 Y34.782
G01 F239 X27.813 Y34.596
G01 F239 X27.852 Y34.410
G01 F239 X27.976 Y34.239
G01 F239 X28.092 Y34.188
G01 F239 X28.092 Y33.383
G01 F239 X27.964 Y33.309
G01 F239 X27.852 Y33.155
G01 F239 X27.834 Y33.068
G01 F239 X25.055 Y35.707
G01 F239 X24.978 Y35.763
G01 F239 X24.877 Y35.808
G01 F239 X24.770 Y35.830
G01 F239 X16.594 Y35.858
G01 F239 X16.578 Y36.726
G01 F239 X16.568 Y36.823
G01 F239 X16.530 Y36.938
G01 F239 X16.470 Y37.043
G01 F239 X16.389 Y37.133
G01 F239 X16.291 Y37.204
G01 F239 X16.181 Y37.253
G01 F239 X16.062 Y37.278
G01 F239 X2.099 Y37.278
G00 F360 Z2.997
G00 F360 X32.412 Y36.344
G00 F180 Z0
G01 F239 Z-0.100
G01 F239 X32.763 Y36.344
G01 F239 X32.803 Y36.303
G01 F239 X32.763 Y36.263
G01 F239 X32.412 Y36.263
G01 F239 X32.412 Y36.344
G00 F360 Z2.997
G00 F360 X14.967 Y36.128
G00 F180 Z0
G01 F239 Z-0.100
G01 F239 X15.436 Y36.128
G01 F239 X15.451 Y35.335
G01 F239 X15.444 Y34.922
G01 F239 X15.207 Y34.922
G01 F239 X15.207 Y35.707
G01 F239 X15.197 Y35.797
G01 F239 X15.163 Y35.901
G01 F239 X15.108 Y35.997
G01 F239 X15.034 Y36.079
G01 F239 X14.967 Y36.128
G00 F360 Z2.997
G00 F360 X3.446 Y35.391
G00 F180 Z0
G01 F239 Z-0.100
G01 F239 X6.516 Y35.391
G01 F239 X6.503 Y35.368
G01 F239 X6.469 Y35.263
G01 F239 X6.460 Y35.173
G01 F239 X6.460 Y31.146
G01 F239 X6.469 Y31.056
G01 F239 X6.503 Y30.951
G01 F239 X6.559 Y30.855
G01 F239 X6.627 Y30.780
G01 F239 X6.705 Y30.717
G01 F239 X6.677 Y29.837
G01 F239 X6.527 Y30.004
G01 F239 X6.334 Y30.144
G01 F239 X6.117 Y30.241
G01 F239 X5.885 Y30.290
G01 F239 X4.123 Y30.290
G01 F239 X3.891 Y30.241
G01 F239 X3.673 Y30.144
G01 F239 X3.481 Y30.004
G01 F239 X3.446 Y29.966
G01 F239 X3.446 Y35.391
G00 F360 Z2.997
G00 F360 X11.492 Y35.391
G00 F180 Z0
G01 F239 Z-0.100
G01 F239 X13.953 Y35.391
G01 F239 X14.156 Y35.318
G01 F239 X14.156 Y34.922
G01 F239 X12.589 Y34.922
G01 F239 X12.589 Y32.774
G01 F239 X12.074 Y32.334
G01 F239 X12.010 Y32.263
G01 F239 X11.955 Y32.168
G01 F239 X11.921 Y32.063
G01 F239 X11.912 Y31.973
G01 F239 X11.910 Y30.966
G01 F239 X9.873 Y30.966
G01 F239 X9.873 Y30.239
G01 F239 X8.804 Y30.258
G01 F239 X8.850 Y31.176
G01 F239 X9.255 Y31.176
G01 F239 X9.255 Y34.629
G01 F239 X10.049 Y34.629
G01 F239 X10.049 Y31.176
G01 F239 X11.795 Y31.176
G01 F239 X11.795 Y34.922
G01 F239 X11.558 Y34.922
G01 F239 X11.548 Y35.180
G01 F239 X11.540 Y35.264
G01 F239 X11.505 Y35.368
G01 F239 X11.492 Y35.391
G00 F360 Z2.997
G00 F360 X34.321 Y35.051
G00 F180 Z0
G01 F239 Z-0.100
G01 F239 X34.132 Y35.031
G01 F239 X33.967 Y34.936
G01 F239 X33.855 Y34.782
G01 F239 X33.824 Y34.635
G01 F239 X33.824 Y33.472
G01 F239 X33.855 Y33.326
G01 F239 X33.937 Y33.212
G01 F239 X34.535 Y32.614
G01 F239 X34.674 Y32.534
G01 F239 X34.884 Y32.512
G01 F239 X35.082 Y32.600
G01 F239 X35.461 Y32.980
G01 F239 X35.461 Y32.930
G01 F239 X35.492 Y32.783
G01 F239 X35.616 Y32.613
G01 F239 X35.823 Y32.520
G01 F239 X36.248 Y32.520
G01 F239 X36.410 Y32.573
G01 F239 X36.448 Y32.607
G01 F239 X36.642 Y32.520
G01 F239 X37.881 Y32.520
G01 F239 X38.042 Y32.573
G01 F239 X38.184 Y32.700
G01 F239 X38.261 Y32.874
G01 F239 X38.261 Y33.064
G01 F239 X38.184 Y33.238
G01 F239 X38.042 Y33.366
G01 F239 X37.881 Y33.418
G01 F239 X37.812 Y33.418
G01 F239 X38.202 Y33.809
G01 F239 X38.263 Y33.996
G01 F239 X38.261 Y34.442
G01 F239 X38.163 Y34.611
G01 F239 X37.860 Y34.912
G01 F239 X37.771 Y34.992
G01 F239 X37.609 Y35.045
G01 F239 X36.988 Y35.045
G01 F239 X36.858 Y35.031
G01 F239 X36.720 Y34.951
G01 F239 X36.394 Y34.625
G01 F239 X36.311 Y34.511
G01 F239 X36.271 Y34.325
G01 F239 X36.311 Y34.139
G01 F239 X36.423 Y33.985
G01 F239 X36.587 Y33.890
G01 F239 X36.797 Y33.868
G01 F239 X36.995 Y33.956
G01 F239 X37.186 Y34.147
G01 F239 X37.272 Y34.147
G01 F239 X36.577 Y33.453
G01 F239 X36.552 Y33.509
G01 F239 X36.410 Y33.637
G01 F239 X36.249 Y33.689
G01 F239 X35.899 Y33.689
G01 F239 X35.807 Y33.680
G01 F239 X35.805 Y34.692
G01 F239 X35.728 Y34.865
G01 F239 X35.587 Y34.992
G01 F239 X35.406 Y35.051
G01 F239 X35.216 Y35.031
G01 F239 X35.052 Y34.936
G01 F239 X34.940 Y34.782
G01 F239 X34.909 Y34.635
G01 F239 X34.909 Y33.697
G01 F239 X34.814 Y33.603
G01 F239 X34.722 Y33.695
G01 F239 X34.720 Y34.692
G01 F239 X34.643 Y34.865
G01 F239 X34.502 Y34.992
G01 F239 X34.321 Y35.051
G00 F360 Z2.997
G00 F360 X16.875 Y34.808
G00 F180 Z0
G01 F239 Z-0.100
G01 F239 X17.669 Y34.805
G01 F239 X17.669 Y31.497
G01 F239 X16.875 Y32.885
G01 F239 X16.875 Y34.808
G00 F360 Z2.997
G00 F360 X19.415 Y34.799
G00 F180 Z0
G01 F239 Z-0.100
G01 F239 X20.209 Y34.797
G01 F239 X20.209 Y33.624
G01 F239 X19.415 Y33.624
G01 F239 X19.415 Y34.799
G00 F360 Z2.997
G00 F360 X21.955 Y34.791
G00 F180 Z0
G01 F239 Z-0.100
G01 F239 X24.503 Y34.782
G01 F239 X29.402 Y30.130
G01 F239 X29.480 Y30.074
G01 F239 X29.580 Y30.029
G01 F239 X29.688 Y30.006
G01 F239 X29.761 Y30.006
G01 F239 X32.036 Y30.032
G01 F239 X32.142 Y30.055
G01 F239 X32.242 Y30.100
G01 F239 X32.331 Y30.164
G01 F239 X32.404 Y30.245
G01 F239 X33.091 Y31.404
G01 F239 X34.044 Y31.408
G01 F239 X33.949 Y31.388
G01 F239 X33.848 Y31.343
G01 F239 X33.759 Y31.278
G01 F239 X33.693 Y31.205
G01 F239 X32.406 Y29.252
G01 F239 X29.319 Y29.252
G01 F239 X24.954 Y33.395
G01 F239 X24.876 Y33.451
G01 F239 X24.776 Y33.496
G01 F239 X24.671 Y33.519
G01 F239 X21.955 Y33.561
G01 F239 X21.955 Y34.791
G00 F360 Z2.997
G00 F360 X31.456 Y34.147
G00 F180 Z0
G01 F239 Z-0.100
G01 F239 X31.626 Y34.147
G01 F239 X31.634 Y34.139
G01 F239 X31.634 Y33.426
G01 F239 X31.626 Y33.418
G01 F239 X31.455 Y33.418
G01 F239 X31.448 Y33.425
G01 F239 X31.447 Y34.138
G01 F239 X31.456 Y34.147
G00 F360 Z2.997
G00 F360 X21.955 Y32.511
G00 F180 Z0
G01 F239 Z-0.100
G01 F239 X24.399 Y32.473
G01 F239 X28.767 Y28.327
G01 F239 X28.845 Y28.271
G01 F239 X28.945 Y28.226
G01 F239 X29.053 Y28.203
G01 F239 X32.745 Y28.203
G01 F239 X32.853 Y28.226
G01 F239 X32.954 Y28.271
G01 F239 X33.043 Y28.335
G01 F239 X33.109 Y28.409
G01 F239 X34.397 Y30.364
G01 F239 X35.048 Y30.367
G01 F239 X34.929 Y30.342
G01 F239 X34.712 Y30.246
G01 F239 X34.520 Y30.106
G01 F239 X34.361 Y29.929
G01 F239 X34.242 Y29.723
G01 F239 X34.168 Y29.497
G01 F239 X34.144 Y29.261
G01 F239 X34.168 Y29.024
G01 F239 X34.242 Y28.798
G01 F239 X34.361 Y28.593
G01 F239 X34.400 Y28.548
G01 F239 X33.134 Y27.296
G01 F239 X29.097 Y27.296
G01 F239 X25.516 Y30.853
G01 F239 X25.435 Y30.911
G01 F239 X25.334 Y30.956
G01 F239 X25.227 Y30.979
G01 F239 X24.490 Y30.979
G01 F239 X24.490 Y31.983
G01 F239 X21.955 Y31.983
G01 F239 X21.955 Y32.511
G00 F360 Z2.997
G00 F360 X19.415 Y32.474
G00 F180 Z0
G01 F239 Z-0.100
G01 F239 X20.209 Y32.474
G01 F239 X20.209 Y31.307
G01 F239 X19.415 Y31.315
G01 F239 X19.415 Y32.474
G00 F360 Z2.997
G00 F360 X38.489 Y31.426
G00 F180 Z0
G01 F239 Z-0.100
G01 F239 X38.489 Y31.351
G01 F239 X38.465 Y31.369
G01 F239 X38.365 Y31.413
G01 F239 X38.307 Y31.426
G01 F239 X38.489 Y31.426
G00 F360 Z2.997
G00 F360 X15.781 Y31.176
G00 F180 Z0
G01 F239 Z-0.100
G01 F239 X16.527 Y31.176
G01 F239 X16.890 Y30.542
G01 F239 X16.931 Y30.470
G01 F239 X16.994 Y30.400
G01 F239 X16.701 Y30.397
G01 F239 X15.781 Y31.176
G00 F360 Z2.997
G00 F360 X12.961 Y31.176
G00 F180 Z0
G01 F239 Z-0.100
G01 F239 X14.216 Y31.176
G01 F239 X14.254 Y31.110
G01 F239 X14.319 Y31.038
G01 F239 X14.405 Y30.966
G01 F239 X12.961 Y30.966
G01 F239 X12.961 Y31.176
G00 F360 Z2.997
G00 F360 X7.721 Y31.176
G00 F180 Z0
G01 F239 Z-0.100
G01 F239 X7.798 Y31.176
G01 F239 X7.726 Y29.733
G01 F239 X7.736 Y29.634
G01 F239 X7.770 Y29.529
G01 F239 X7.825 Y29.433
G01 F239 X7.899 Y29.351
G01 F239 X7.988 Y29.287
G01 F239 X8.089 Y29.242
G01 F239 X8.194 Y29.220
G01 F239 X9.873 Y29.189
G01 F239 X9.873 Y28.420
G01 F239 X11.905 Y28.420
G01 F239 X11.905 Y28.207
G01 F239 X11.915 Y28.116
G01 F239 X11.949 Y28.012
G01 F239 X11.951 Y28.007
G01 F239 X8.436 Y28.007
G01 F239 X7.695 Y28.821
G01 F239 X7.765 Y30.976
G01 F239 X7.755 Y31.072
G01 F239 X7.721 Y31.176
G00 F360 Z2.997
G00 F360 X15.019 Y30.445
G00 F180 Z0
G01 F239 Z-0.100
G01 F239 X16.037 Y29.583
G01 F239 X15.019 Y29.597
G01 F239 X15.019 Y30.445
G00 F360 Z2.997
G00 F360 X37.676 Y30.384
G00 F180 Z0
G01 F239 Z-0.100
G01 F239 X37.676 Y29.983
G01 F239 X37.566 Y30.106
G01 F239 X37.373 Y30.246
G01 F239 X37.156 Y30.342
G01 F239 X36.980 Y30.380
G01 F239 X37.676 Y30.384
G00 F360 Z2.997
G00 F360 X19.399 Y30.263
G00 F180 Z0
G01 F239 Z-0.100
G01 F239 X21.941 Y30.236
G01 F239 X21.941 Y29.938
G01 F239 X19.548 Y29.938
G01 F239 X19.541 Y30.006
G01 F239 X19.506 Y30.110
G01 F239 X19.451 Y30.206
G01 F239 X19.399 Y30.263
G00 F360 Z2.997
G00 F360 X24.490 Y29.930
G00 F180 Z0
G01 F239 Z-0.100
G01 F239 X24.954 Y29.930
G01 F239 X28.476 Y26.433
G01 F239 X28.057 Y26.433
G01 F239 X24.678 Y29.811
G01 F239 X24.597 Y29.870
G01 F239 X24.496 Y29.915
G01 F239 X24.490 Y29.916
G01 F239 X24.490 Y29.930
G00 F360 Z2.997
G00 F360 X18.528 Y29.366
G00 F180 Z0
G01 F239 Z-0.100
G01 F239 X18.532 Y29.324
G01 F239 X18.447 Y29.365
G01 F239 X18.528 Y29.366
G00 F360 Z2.997
G00 F360 X19.362 Y28.889
G00 F180 Z0
G01 F239 Z-0.100
G01 F239 X21.941 Y28.889
G01 F239 X21.941 Y28.642
G01 F239 X19.685 Y28.642
G01 F239 X19.362 Y28.889
G00 F360 Z2.997
G00 F360 X37.676 Y28.539
G00 F180 Z0
G01 F239 Z-0.100
G01 F239 X37.676 Y27.443
G01 F239 X37.566 Y27.566
G01 F239 X37.373 Y27.706
G01 F239 X37.156 Y27.802
G01 F239 X36.923 Y27.852
G01 F239 X35.190 Y27.852
G01 F239 X35.471 Y28.130
G01 F239 X36.923 Y28.130
G01 F239 X37.156 Y28.179
G01 F239 X37.373 Y28.276
G01 F239 X37.566 Y28.416
G01 F239 X37.676 Y28.539
G00 F360 Z2.997
G00 F360 X24.490 Y28.514
G00 F180 Z0
G01 F239 Z-0.100
G01 F239 X27.493 Y25.510
G01 F239 X27.575 Y25.451
G01 F239 X27.595 Y25.442
G01 F239 X21.916 Y25.442
G01 F239 X21.808 Y25.419
G01 F239 X21.707 Y25.374
G01 F239 X21.618 Y25.309
G01 F239 X21.544 Y25.227
G01 F239 X21.507 Y25.162
G01 F239 X21.339 Y24.855
G01 F239 X21.334 Y25.479
G01 F239 X21.353 Y27.456
G01 F239 X21.353 Y27.593
G01 F239 X21.941 Y27.593
G01 F239 X21.941 Y26.793
G01 F239 X24.490 Y26.793
G01 F239 X24.490 Y28.514
G00 F360 Z2.997
G00 F360 X6.663 Y28.466
G00 F180 Z0
G01 F239 Z-0.100
G01 F239 X6.681 Y28.411
G01 F239 X6.725 Y28.335
G01 F239 X6.625 Y28.424
G01 F239 X6.663 Y28.466
G00 F360 Z2.997
G00 F360 X3.446 Y28.353
G00 F180 Z0
G01 F239 Z-0.100
G01 F239 X3.481 Y28.314
G01 F239 X3.673 Y28.174
G01 F239 X3.891 Y28.078
G01 F239 X4.123 Y28.028
G01 F239 X5.487 Y28.028
G01 F239 X5.801 Y27.750
G01 F239 X4.123 Y27.750
G01 F239 X3.891 Y27.701
G01 F239 X3.673 Y27.604
G01 F239 X3.481 Y27.464
G01 F239 X3.446 Y27.426
G01 F239 X3.446 Y28.353
G00 F360 Z2.997
G00 F360 X18.282 Y28.277
G00 F180 Z0
G01 F239 Z-0.100
G01 F239 X18.697 Y28.075
G01 F239 X19.183 Y27.705
G01 F239 X19.244 Y27.661
G01 F239 X19.345 Y27.616
G01 F239 X19.453 Y27.593
G01 F239 X20.303 Y27.593
G01 F239 X20.303 Y27.461
G01 F239 X20.294 Y26.582
G01 F239 X20.279 Y26.593
G01 F239 X20.178 Y26.638
G01 F239 X20.078 Y26.660
G01 F239 X19.678 Y26.677
G01 F239 X18.282 Y28.277
G00 F360 Z2.997
G00 F360 X34.155 Y26.829
G00 F180 Z0
G01 F239 Z-0.100
G01 F239 X34.144 Y26.721
G01 F239 X34.168 Y26.484
G01 F239 X34.185 Y26.433
G01 F239 X33.754 Y26.433
G01 F239 X34.155 Y26.829
G00 F360 Z2.997
G00 F360 X6.885 Y26.789
G00 F180 Z0
G01 F239 Z-0.100
G01 F239 X6.934 Y26.745
G01 F239 X6.889 Y26.756
G01 F239 X6.885 Y26.789
G00 F360 Z2.997
G00 F360 X3.446 Y25.813
G00 F180 Z0
G01 F239 Z-0.100
G01 F239 X3.481 Y25.774
G01 F239 X3.673 Y25.634
G01 F239 X3.891 Y25.538
G01 F239 X4.123 Y25.488
G01 F239 X5.885 Y25.488
G01 F239 X6.117 Y25.538
G01 F239 X6.334 Y25.634
G01 F239 X6.500 Y25.754
G01 F239 X7.545 Y25.526
G01 F239 X7.579 Y25.518
G01 F239 X7.745 Y25.485
G01 F239 X8.239 Y25.485
G01 F239 X8.168 Y25.470
G01 F239 X8.067 Y25.425
G01 F239 X7.978 Y25.360
G01 F239 X7.924 Y25.300
G01 F239 X7.232 Y24.445
G01 F239 X6.826 Y24.474
G01 F239 X6.804 Y24.542
G01 F239 X6.686 Y24.748
G01 F239 X6.527 Y24.924
G01 F239 X6.334 Y25.064
G01 F239 X6.117 Y25.161
G01 F239 X5.885 Y25.210
G01 F239 X4.123 Y25.210
G01 F239 X3.891 Y25.161
G01 F239 X3.673 Y25.064
G01 F239 X3.481 Y24.924
G01 F239 X3.446 Y24.886
G01 F239 X3.446 Y25.813
G00 F360 Z2.997
G00 F360 X16.858 Y25.804
G00 F180 Z0
G01 F239 Z-0.100
G01 F239 X17.938 Y24.318
G01 F239 X17.921 Y23.131
G01 F239 X17.858 Y23.131
G01 F239 X17.858 Y21.369
G01 F239 X18.684 Y21.369
G01 F239 X18.684 Y20.861
G01 F239 X20.309 Y20.861
G01 F239 X20.309 Y20.148
G01 F239 X20.318 Y20.058
G01 F239 X20.353 Y19.953
G01 F239 X20.408 Y19.858
G01 F239 X20.482 Y19.776
G01 F239 X20.571 Y19.711
G01 F239 X20.671 Y19.666
G01 F239 X20.779 Y19.643
G01 F239 X23.677 Y19.643
G01 F239 X23.785 Y19.666
G01 F239 X23.886 Y19.711
G01 F239 X23.967 Y19.770
G01 F239 X24.265 Y20.068
G01 F239 X24.265 Y18.787
G01 F239 X23.725 Y18.787
G01 F239 X23.724 Y18.787
G01 F239 X23.606 Y18.812
G01 F239 X23.485 Y18.812
G01 F239 X23.367 Y18.787
G01 F239 X23.257 Y18.738
G01 F239 X23.159 Y18.667
G01 F239 X23.078 Y18.577
G01 F239 X23.018 Y18.472
G01 F239 X22.980 Y18.358
G01 F239 X22.970 Y18.257
G01 F239 X22.970 Y18.006
G01 F239 X19.169 Y18.006
G01 F239 X19.169 Y19.044
G01 F239 X19.158 Y19.145
G01 F239 X19.121 Y19.260
G01 F239 X19.061 Y19.364
G01 F239 X18.980 Y19.454
G01 F239 X18.882 Y19.525
G01 F239 X18.771 Y19.575
G01 F239 X18.653 Y19.600
G01 F239 X18.532 Y19.600
G01 F239 X18.420 Y19.576
G01 F239 X18.204 Y19.578
G01 F239 X18.204 Y20.382
G01 F239 X17.696 Y20.382
G01 F239 X17.696 Y21.207
G01 F239 X17.115 Y21.207
G01 F239 X16.858 Y21.736
G01 F239 X16.858 Y25.804
G00 F360 Z2.997
G00 F360 X37.283 Y25.698
G00 F180 Z0
G01 F239 Z-0.100
G01 F239 X37.676 Y25.694
G01 F239 X37.677 Y24.902
G01 F239 X37.566 Y25.026
G01 F239 X37.373 Y25.166
G01 F239 X37.156 Y25.262
G01 F239 X36.923 Y25.312
G01 F239 X35.961 Y25.312
G01 F239 X35.875 Y25.374
G01 F239 X35.774 Y25.419
G01 F239 X35.707 Y25.433
G01 F239 X35.748 Y25.451
G01 F239 X35.829 Y25.510
G01 F239 X35.909 Y25.590
G01 F239 X36.923 Y25.590
G01 F239 X37.160 Y25.640
G01 F239 X37.283 Y25.698
G00 F360 Z2.997
G00 F360 X19.469 Y25.635
G00 F180 Z0
G01 F239 Z-0.100
G01 F239 X19.493 Y25.634
G01 F239 X19.493 Y25.605
G01 F239 X19.469 Y25.635
G00 F360 Z2.997
G00 F360 X15.611 Y25.485
G00 F180 Z0
G01 F239 Z-0.100
G01 F239 X15.807 Y25.485
G01 F239 X15.807 Y25.408
G01 F239 X15.783 Y25.425
G01 F239 X15.682 Y25.470
G01 F239 X15.611 Y25.485
G00 F360 Z2.997
G00 F360 X8.582 Y24.444
G00 F180 Z0
G01 F239 Z-0.100
G01 F239 X8.806 Y24.444
G01 F239 X8.764 Y24.370
G01 F239 X8.730 Y24.265
G01 F239 X8.720 Y24.177
G01 F239 X8.695 Y21.354
G01 F239 X8.721 Y20.825
G01 F239 X8.730 Y20.744
G01 F239 X8.764 Y20.639
G01 F239 X8.819 Y20.544
G01 F239 X8.873 Y20.483
G01 F239 X9.000 Y20.356
G01 F239 X9.000 Y19.029
G01 F239 X8.450 Y19.029
G01 F239 X8.450 Y19.959
G01 F239 X8.441 Y20.049
G01 F239 X8.407 Y20.154
G01 F239 X8.352 Y20.249
G01 F239 X8.283 Y20.325
G01 F239 X6.891 Y21.423
G01 F239 X6.903 Y21.539
G01 F239 X6.878 Y21.776
G01 F239 X6.804 Y22.002
G01 F239 X6.686 Y22.207
G01 F239 X6.527 Y22.384
G01 F239 X6.334 Y22.524
G01 F239 X6.117 Y22.621
G01 F239 X5.885 Y22.670
G01 F239 X4.123 Y22.670
G01 F239 X3.891 Y22.621
G01 F239 X3.673 Y22.524
G01 F239 X3.481 Y22.384
G01 F239 X3.446 Y22.346
G01 F239 X3.446 Y23.273
G01 F239 X3.481 Y23.234
G01 F239 X3.673 Y23.094
G01 F239 X3.891 Y22.998
G01 F239 X4.123 Y22.948
G01 F239 X5.885 Y22.948
G01 F239 X6.117 Y22.998
G01 F239 X6.334 Y23.094
G01 F239 X6.527 Y23.234
G01 F239 X6.686 Y23.411
G01 F239 X6.697 Y23.430
G01 F239 X7.438 Y23.377
G01 F239 X7.523 Y23.377
G01 F239 X7.631 Y23.400
G01 F239 X7.731 Y23.445
G01 F239 X7.821 Y23.509
G01 F239 X7.875 Y23.569
G01 F239 X8.582 Y24.444
G00 F360 Z2.997
G00 F360 X13.427 Y24.444
G00 F180 Z0
G01 F239 Z-0.100
G01 F239 X14.986 Y24.444
G01 F239 X14.976 Y23.753
G01 F239 X14.171 Y23.753
G01 F239 X14.119 Y23.920
G01 F239 X14.096 Y23.989
G01 F239 X14.041 Y24.085
G01 F239 X13.967 Y24.167
G01 F239 X13.878 Y24.232
G01 F239 X13.777 Y24.277
G01 F239 X13.670 Y24.300
G01 F239 X13.598 Y24.300
G01 F239 X13.520 Y24.299
G01 F239 X13.427 Y24.444
G00 F360 Z2.997
G00 F360 X22.283 Y24.393
G00 F180 Z0
G01 F239 Z-0.100
G01 F239 X22.413 Y24.393
G01 F239 X22.160 Y24.122
G01 F239 X22.160 Y24.168
G01 F239 X22.283 Y24.393
G00 F360 Z2.997
G00 F360 X32.856 Y24.393
G00 F180 Z0
G01 F239 Z-0.100
G01 F239 X34.166 Y24.393
G01 F239 X34.144 Y24.181
G01 F239 X34.168 Y23.944
G01 F239 X34.242 Y23.718
G01 F239 X34.361 Y23.513
G01 F239 X34.520 Y23.336
G01 F239 X34.712 Y23.196
G01 F239 X34.929 Y23.099
G01 F239 X35.162 Y23.050
G01 F239 X36.923 Y23.050
G01 F239 X37.156 Y23.099
G01 F239 X37.373 Y23.196
G01 F239 X37.566 Y23.336
G01 F239 X37.678 Y23.461
G01 F239 X37.679 Y22.360
G01 F239 X37.566 Y22.486
G01 F239 X37.373 Y22.626
G01 F239 X37.156 Y22.722
G01 F239 X36.923 Y22.772
G01 F239 X35.162 Y22.772
G01 F239 X34.929 Y22.722
G01 F239 X34.712 Y22.626
G01 F239 X34.569 Y22.522
G01 F239 X32.856 Y24.393
G00 F360 Z2.997
G00 F360 X9.766 Y23.627
G00 F180 Z0
G01 F239 Z-0.100
G01 F239 X10.004 Y23.626
G01 F239 X10.004 Y21.205
G01 F239 X10.651 Y21.205
G01 F239 X10.651 Y20.376
G01 F239 X10.661 Y20.286
G01 F239 X10.695 Y20.181
G01 F239 X10.736 Y20.109
G01 F239 X10.910 Y19.849
G01 F239 X10.976 Y19.776
G01 F239 X11.065 Y19.711
G01 F239 X11.165 Y19.666
G01 F239 X11.271 Y19.643
G01 F239 X11.844 Y19.637
G01 F239 X11.844 Y19.029
G01 F239 X11.196 Y19.029
G01 F239 X11.196 Y16.480
G01 F239 X11.927 Y16.480
G01 F239 X11.232 Y15.785
G01 F239 X11.073 Y15.785
G01 F239 X11.019 Y15.880
G01 F239 X10.965 Y15.940
G01 F239 X10.425 Y16.480
G01 F239 X10.699 Y16.480
G01 F239 X10.699 Y19.029
G01 F239 X10.051 Y19.029
G01 F239 X10.051 Y20.593
G01 F239 X10.041 Y20.683
G01 F239 X10.007 Y20.788
G01 F239 X9.952 Y20.883
G01 F239 X9.898 Y20.944
G01 F239 X9.760 Y21.082
G01 F239 X9.746 Y21.368
G01 F239 X9.766 Y23.627
G00 F360 Z2.997
G00 F360 X12.350 Y23.610
G00 F180 Z0
G01 F239 Z-0.100
G01 F239 X12.717 Y23.607
G01 F239 X12.813 Y23.458
G01 F239 X12.847 Y23.419
G01 F239 X12.847 Y21.205
G01 F239 X14.206 Y21.205
G01 F239 X14.207 Y21.182
G01 F239 X14.155 Y19.188
G01 F239 X13.599 Y19.783
G01 F239 X12.767 Y20.558
G01 F239 X12.692 Y20.613
G01 F239 X12.591 Y20.658
G01 F239 X12.485 Y20.680
G01 F239 X11.702 Y20.688
G01 F239 X11.702 Y21.205
G01 F239 X12.350 Y21.205
G01 F239 X12.350 Y23.610
G00 F360 Z2.997
G00 F360 X31.156 Y23.605
G00 F180 Z0
G01 F239 Z-0.100
G01 F239 X32.154 Y23.605
G01 F239 X34.168 Y21.406
G01 F239 X34.168 Y21.404
G01 F239 X34.242 Y21.178
G01 F239 X34.361 Y20.973
G01 F239 X34.520 Y20.796
G01 F239 X34.712 Y20.656
G01 F239 X34.929 Y20.559
G01 F239 X35.162 Y20.510
G01 F239 X36.923 Y20.510
G01 F239 X37.156 Y20.559
G01 F239 X37.373 Y20.656
G01 F239 X37.566 Y20.796
G01 F239 X37.680 Y20.923
G01 F239 X37.681 Y19.818
G01 F239 X37.566 Y19.946
G01 F239 X37.373 Y20.086
G01 F239 X37.156 Y20.182
G01 F239 X36.923 Y20.232
G01 F239 X35.162 Y20.232
G01 F239 X34.929 Y20.182
G01 F239 X34.712 Y20.086
G01 F239 X34.597 Y20.002
G01 F239 X31.156 Y23.605
G00 F360 Z2.997
G00 F360 X28.903 Y22.869
G00 F180 Z0
G01 F239 Z-0.100
G01 F239 X30.407 Y22.869
G01 F239 X34.161 Y18.935
G01 F239 X34.168 Y18.864
G01 F239 X34.242 Y18.638
G01 F239 X34.361 Y18.433
G01 F239 X34.520 Y18.256
G01 F239 X34.712 Y18.116
G01 F239 X34.929 Y18.019
G01 F239 X35.162 Y17.970
G01 F239 X36.923 Y17.970
G01 F239 X37.156 Y18.019
G01 F239 X37.373 Y18.116
G01 F239 X37.566 Y18.256
G01 F239 X37.682 Y18.385
G01 F239 X37.682 Y17.276
G01 F239 X37.566 Y17.406
G01 F239 X37.373 Y17.546
G01 F239 X37.156 Y17.642
G01 F239 X36.923 Y17.692
G01 F239 X35.162 Y17.692
G01 F239 X34.929 Y17.642
G01 F239 X34.712 Y17.546
G01 F239 X34.520 Y17.406
G01 F239 X34.447 Y17.325
G01 F239 X28.903 Y22.869
G00 F360 Z2.997
G00 F360 X24.614 Y21.954
G00 F180 Z0
G01 F239 Z-0.100
G01 F239 X24.666 Y21.954
G01 F239 X24.613 Y21.902
G01 F239 X24.614 Y21.954
G00 F360 Z2.997
G00 F360 X27.709 Y21.954
G00 F180 Z0
G01 F239 Z-0.100
G01 F239 X28.332 Y21.954
G01 F239 X34.316 Y15.970
G01 F239 X34.361 Y15.893
G01 F239 X34.520 Y15.716
G01 F239 X34.712 Y15.576
G01 F239 X34.929 Y15.479
G01 F239 X35.162 Y15.430
G01 F239 X36.923 Y15.430
G01 F239 X37.156 Y15.479
G01 F239 X37.373 Y15.576
G01 F239 X37.566 Y15.716
G01 F239 X37.683 Y15.847
G01 F239 X37.684 Y14.734
G01 F239 X37.566 Y14.866
G01 F239 X37.373 Y15.006
G01 F239 X37.156 Y15.102
G01 F239 X36.923 Y15.152
G01 F239 X35.162 Y15.152
G01 F239 X34.929 Y15.102
G01 F239 X34.712 Y15.006
G01 F239 X34.520 Y14.866
G01 F239 X34.361 Y14.689
G01 F239 X34.242 Y14.483
G01 F239 X34.168 Y14.257
G01 F239 X34.144 Y14.021
G01 F239 X34.168 Y13.784
G01 F239 X34.223 Y13.616
G01 F239 X33.952 Y13.501
G01 F239 X33.952 Y16.172
G01 F239 X32.656 Y16.172
G01 F239 X32.656 Y16.809
G01 F239 X32.647 Y16.899
G01 F239 X32.613 Y17.004
G01 F239 X32.558 Y17.099
G01 F239 X32.504 Y17.160
G01 F239 X27.709 Y21.954
G00 F360 Z2.997
G00 F360 X23.785 Y21.369
G00 F180 Z0
G01 F239 Z-0.100
G01 F239 X24.081 Y21.369
G01 F239 X23.785 Y21.074
G01 F239 X23.785 Y21.369
G00 F360 Z2.997
G00 F360 X21.360 Y20.861
G00 F180 Z0
